;FLAVOR:UltiGCode
;TIME:5276
;MATERIAL:9333
;MATERIAL2:0
;Generated with Cura_SteamEngine DEV
;LAYER:0
;M107
;G0 F9000 X96.111 Y94.852 Z0.299
;G0 X97.961 Y93.945
;TYPE:SKIRT
G1 F900 X98.052 Y93.936 E0.01094
G1 X98.049 Y93.936 E0.01130
G1 X99.363 Y93.910 E0.16848
G1 X130.961 Y93.910 E3.94760
G1 X131.704 Y93.920 E4.03647
G1 X131.833 Y93.926 E4.05192
G1 X131.877 Y93.929 E4.05719
G1 X132.012 Y93.942 E4.07341
G1 X132.079 Y93.950 E4.08148
G1 X132.158 Y93.963 E4.09106
G1 X132.266 Y93.982 E4.10417
G1 X132.320 Y93.994 E4.11079
G1 X132.443 Y94.024 E4.12593
G1 X132.501 Y94.039 E4.13310
G1 X132.599 Y94.069 E4.14535
G1 X132.654 Y94.087 E4.15228
G1 X132.777 Y94.131 E4.16790
G1 X132.860 Y94.164 E4.17858
G1 X132.906 Y94.184 E4.18458
G1 X133.021 Y94.237 E4.19973
G1 X133.094 Y94.273 E4.20946
G1 X133.153 Y94.304 E4.21743
G1 X133.269 Y94.370 E4.23339
G1 X133.331 Y94.407 E4.24203
G1 X133.373 Y94.434 E4.24800
G1 X133.465 Y94.497 E4.26134
G1 X133.547 Y94.556 E4.27342
G1 X133.620 Y94.612 E4.28442
G1 X133.672 Y94.655 E4.29249
G1 X133.763 Y94.733 E4.30683
G1 X133.796 Y94.762 E4.31208
G1 X133.885 Y94.848 E4.32688
G1 X133.951 Y94.915 E4.33813
G1 X133.968 Y94.933 E4.34109
G1 X134.046 Y95.021 E4.35516
G1 X134.105 Y95.092 E4.36620
G1 X134.192 Y95.202 E4.38297
G1 X134.205 Y95.219 E4.38553
G1 X134.290 Y95.341 E4.40331
G1 X134.308 Y95.368 E4.40719
G1 X134.379 Y95.482 E4.42326
G1 X134.407 Y95.530 E4.42990
G1 X134.456 Y95.619 E4.44205
G1 X134.491 Y95.689 E4.45141
G1 X134.542 Y95.795 E4.46548
G1 X134.580 Y95.882 E4.47684
G1 X134.593 Y95.914 E4.48097
G1 X134.645 Y96.051 E4.49849
G1 X134.656 Y96.083 E4.50254
G1 X134.691 Y96.194 E4.51646
G1 X134.714 Y96.275 E4.52653
G1 X134.734 Y96.355 E4.53639
G1 X134.754 Y96.442 E4.54707
G1 X134.772 Y96.531 E4.55793
G1 X134.791 Y96.646 E4.57187
G1 X134.800 Y96.706 E4.57913
G1 X134.809 Y96.795 E4.58983
G1 X134.835 Y98.108 E4.74689
G1 X134.835 Y127.196 E8.22582
G1 X134.825 Y127.959 E8.31708
G1 X134.819 Y128.088 E8.33252
G1 X134.817 Y128.122 E8.33660
G1 X134.803 Y128.267 E8.35402
G1 X134.795 Y128.334 E8.36209
G1 X134.782 Y128.413 E8.37167
G1 X134.763 Y128.521 E8.38478
G1 X134.755 Y128.558 E8.38931
G1 X134.724 Y128.687 E8.40518
G1 X134.706 Y128.756 E8.41370
G1 X134.676 Y128.854 E8.42596
G1 X134.657 Y128.911 E8.43315
G1 X134.615 Y129.028 E8.44802
G1 X134.581 Y129.115 E8.45919
G1 X134.561 Y129.161 E8.46519
G1 X134.508 Y129.276 E8.48033
G1 X134.478 Y129.337 E8.48846
G1 X134.441 Y129.408 E8.49804
G1 X134.375 Y129.524 E8.51400
G1 X134.338 Y129.585 E8.52253
G1 X134.310 Y129.629 E8.52877
G1 X134.250 Y129.717 E8.54151
G1 X134.197 Y129.791 E8.55239
G1 X134.134 Y129.873 E8.56476
G1 X134.090 Y129.927 E8.57309
G1 X134.000 Y130.032 E8.58963
G1 X133.896 Y130.140 E8.60756
G1 X133.826 Y130.210 E8.61940
G1 X133.802 Y130.232 E8.62330
G1 X133.718 Y130.306 E8.63669
G1 X133.640 Y130.371 E8.64883
G1 X133.551 Y130.441 E8.66237
G1 X133.510 Y130.471 E8.66845
G1 X133.404 Y130.545 E8.68391
G1 X133.377 Y130.563 E8.68779
G1 X133.271 Y130.629 E8.70272
G1 X133.207 Y130.666 E8.71157
G1 X133.129 Y130.709 E8.72222
G1 X133.056 Y130.746 E8.73201
G1 X132.950 Y130.797 E8.74608
G1 X132.863 Y130.835 E8.75743
G1 X132.824 Y130.851 E8.76247
G1 X132.694 Y130.900 E8.77909
G1 X132.641 Y130.918 E8.78578
G1 X132.551 Y130.946 E8.79705
G1 X132.467 Y130.970 E8.80750
G1 X132.390 Y130.989 E8.81699
G1 X132.291 Y131.012 E8.82914
G1 X132.198 Y131.030 E8.84047
G1 X132.099 Y131.046 E8.85247
G1 X132.039 Y131.055 E8.85972
G1 X131.950 Y131.064 E8.87042
G1 X130.637 Y131.090 E9.02749
G1 X99.039 Y131.090 E12.80661
G1 X98.296 Y131.080 E12.89548
G1 X98.167 Y131.074 E12.91092
G1 X98.123 Y131.071 E12.91620
G1 X97.988 Y131.058 E12.93242
G1 X97.921 Y131.050 E12.94049
G1 X97.842 Y131.037 E12.95007
G1 X97.731 Y131.017 E12.96355
G1 X97.680 Y131.006 E12.96979
G1 X97.557 Y130.976 E12.98494
G1 X97.499 Y130.961 E12.99210
G1 X97.401 Y130.931 E13.00436
G1 X97.344 Y130.912 E13.01155
G1 X97.223 Y130.869 E13.02690
G1 X97.138 Y130.835 E13.03785
G1 X97.094 Y130.816 E13.04358
G1 X96.979 Y130.763 E13.05873
G1 X96.906 Y130.727 E13.06846
G1 X96.842 Y130.693 E13.07713
G1 X96.729 Y130.629 E13.09266
G1 X96.666 Y130.591 E13.10146
G1 X96.623 Y130.563 E13.10760
G1 X96.535 Y130.503 E13.12034
G1 X96.452 Y130.443 E13.13259
G1 X96.380 Y130.388 E13.14342
G1 X96.323 Y130.341 E13.15226
G1 X96.233 Y130.264 E13.16642
G1 X96.202 Y130.235 E13.17150
G1 X96.111 Y130.148 E13.18656
G1 X96.032 Y130.067 E13.20009
G1 X96.023 Y130.057 E13.20170
G1 X95.940 Y129.962 E13.21679
G1 X95.884 Y129.895 E13.22723
G1 X95.795 Y129.781 E13.24453
G1 X95.784 Y129.765 E13.24685
G1 X95.704 Y129.651 E13.26351
G1 X95.692 Y129.632 E13.26620
G1 X95.619 Y129.515 E13.28269
G1 X95.586 Y129.457 E13.29067
G1 X95.539 Y129.371 E13.30239
G1 X95.509 Y129.311 E13.31041
G1 X95.455 Y129.197 E13.32550
G1 X95.420 Y129.118 E13.33584
G1 X95.404 Y129.079 E13.34088
G1 X95.355 Y128.949 E13.35749
G1 X95.337 Y128.896 E13.36419
G1 X95.309 Y128.806 E13.37546
G1 X95.285 Y128.722 E13.38591
G1 X95.266 Y128.645 E13.39539
G1 X95.243 Y128.546 E13.40755
G1 X95.225 Y128.453 E13.41888
G1 X95.209 Y128.354 E13.43087
G1 X95.200 Y128.294 E13.43813
G1 X95.191 Y128.203 E13.44907
G1 X95.165 Y126.871 E13.60840
G1 X95.165 Y97.771 E17.08876
G1 X95.175 Y97.041 E17.17608
G1 X95.181 Y96.912 E17.19152
G1 X95.184 Y96.868 E17.19680
G1 X95.197 Y96.733 E17.21302
G1 X95.205 Y96.666 E17.22109
G1 X95.219 Y96.580 E17.23151
G1 X95.237 Y96.479 E17.24378
G1 X95.249 Y96.425 E17.25040
G1 X95.279 Y96.302 E17.26554
G1 X95.294 Y96.244 E17.27270
G1 X95.331 Y96.123 E17.28784
G1 X95.345 Y96.083 E17.29291
G1 X95.386 Y95.968 E17.30751
G1 X95.419 Y95.885 E17.31819
G1 X95.444 Y95.827 E17.32574
G1 X95.492 Y95.724 E17.33933
G1 X95.528 Y95.651 E17.34907
G1 X95.559 Y95.592 E17.35704
G1 X95.625 Y95.476 E17.37300
G1 X95.662 Y95.414 E17.38164
G1 X95.690 Y95.371 E17.38777
G1 X95.764 Y95.263 E17.40343
G1 X95.812 Y95.197 E17.41319
G1 X95.871 Y95.120 E17.42480
G1 X95.910 Y95.073 E17.43210
G1 X95.991 Y94.978 E17.44703
G1 X96.017 Y94.949 E17.45169
G1 X96.111 Y94.852 E17.46784
G1 X96.184 Y94.781 E17.48002
G1 X96.198 Y94.768 E17.48231
G1 X96.282 Y94.694 E17.49570
G1 X96.360 Y94.629 E17.50784
G1 X96.465 Y94.547 E17.52377
G1 X96.492 Y94.527 E17.52779
G1 X96.596 Y94.455 E17.54292
G1 X96.627 Y94.434 E17.54740
G1 X96.737 Y94.366 E17.56287
G1 X96.793 Y94.334 E17.57058
G1 X96.874 Y94.289 E17.58166
G1 X96.944 Y94.254 E17.59102
G1 X97.050 Y94.203 E17.60509
G1 X97.137 Y94.165 E17.61645
G1 X97.176 Y94.149 E17.62149
G1 X97.306 Y94.100 E17.63810
G1 X97.359 Y94.082 E17.64480
G1 X97.449 Y94.054 E17.65607
G1 X97.533 Y94.030 E17.66652
G1 X97.610 Y94.011 E17.67600
G1 X97.709 Y93.988 E17.68816
G1 X97.802 Y93.970 E17.69949
G1 X97.901 Y93.954 E17.71148
G1 X97.961 Y93.945 E17.71874
G10
G0 F9000 X98.965 Y97.710
;TYPE:WALL-INNER
G11
G1 F900 X131.035 Y97.710 E21.55431
G1 X131.035 Y127.290 E25.09208
G1 X98.965 Y127.290 E28.92765
G1 X98.965 Y97.710 E32.46542
G0 F9000 X98.565 Y97.310
;TYPE:WALL-OUTER
G1 F900 X131.435 Y97.310 E36.39667
G1 X131.435 Y127.690 E40.03012
G1 X98.565 Y127.690 E43.96137
G1 X98.565 Y97.310 E47.59482
G0 F9000 X99.104 Y97.973
;TYPE:SKIN
G1 F900 X128.280 Y127.149 E52.52965
G0 F9000 X127.714 Y127.149
G1 F900 X99.104 Y98.538 E57.36882
G0 F9000 X99.104 Y99.104
G1 F900 X127.149 Y127.149 E62.11235
G0 F9000 X126.583 Y127.149
G1 F900 X99.104 Y99.670 E66.76015
G0 F9000 X99.104 Y100.235
G1 F900 X126.017 Y127.149 E71.31230
G0 F9000 X125.452 Y127.149
G1 F900 X99.104 Y100.801 E75.76880
G0 F9000 X99.104 Y101.367
G1 F900 X124.886 Y127.149 E80.12956
G0 F9000 X124.320 Y127.149
G1 F900 X99.104 Y101.932 E84.39468
G0 F9000 X99.104 Y102.498
G1 F900 X123.755 Y127.149 E88.56415
G0 F9000 X123.189 Y127.149
G1 F900 X99.104 Y103.064 E92.63789
G0 F9000 X99.104 Y103.630
G1 F900 X122.623 Y127.149 E96.61589
G0 F9000 X122.057 Y127.149
G1 F900 X99.104 Y104.195 E100.49824
G0 F9000 X99.104 Y104.761
G1 F900 X121.492 Y127.149 E104.28495
G0 F9000 X120.926 Y127.149
G1 F900 X99.104 Y105.327 E107.97592
G0 F9000 X99.104 Y105.892
G1 F900 X120.360 Y127.149 E111.57124
G0 F9000 X119.795 Y127.149
G1 F900 X99.104 Y106.458 E115.07092
G0 F9000 X99.104 Y107.024
G1 F900 X119.229 Y127.149 E118.47486
G0 F9000 X118.663 Y127.149
G1 F900 X99.104 Y107.589 E121.78315
G0 F9000 X99.104 Y108.155
G1 F900 X118.098 Y127.149 E124.99579
G0 F9000 X117.532 Y127.149
G1 F900 X99.104 Y108.721 E128.11270
G0 F9000 X99.104 Y109.286
G1 F900 X116.966 Y127.149 E131.13397
G0 F9000 X116.401 Y127.149
G1 F900 X99.104 Y109.852 E134.05958
G0 F9000 X99.104 Y110.418
G1 F900 X115.835 Y127.149 E136.88946
G0 F9000 X115.269 Y127.149
G1 F900 X99.104 Y110.983 E139.62369
G0 F9000 X99.104 Y111.549
G1 F900 X114.704 Y127.149 E142.26228
G0 F9000 X114.138 Y127.149
G1 F900 X99.104 Y112.115 E144.80513
G0 F9000 X99.104 Y112.681
G1 F900 X113.572 Y127.149 E147.25224
G0 F9000 X113.006 Y127.149
G1 F900 X99.104 Y113.246 E149.60371
G0 F9000 X99.104 Y113.812
G1 F900 X112.441 Y127.149 E151.85953
G0 F9000 X111.875 Y127.149
G1 F900 X99.104 Y114.378 E154.01962
G0 F9000 X99.104 Y114.943
G1 F900 X111.309 Y127.149 E156.08405
G0 F9000 X110.744 Y127.149
G1 F900 X99.104 Y115.509 E158.05284
G0 F9000 X99.104 Y116.075
G1 F900 X110.178 Y127.149 E159.92590
G0 F9000 X109.612 Y127.149
G1 F900 X99.104 Y116.640 E161.70331
G0 F9000 X99.104 Y117.206
G1 F900 X109.047 Y127.149 E163.38506
G0 F9000 X108.481 Y127.149
G1 F900 X99.104 Y117.772 E164.97109
G0 F9000 X99.104 Y118.337
G1 F900 X107.915 Y127.149 E166.46147
G0 F9000 X107.350 Y127.149
G1 F900 X99.104 Y118.903 E167.85619
G0 F9000 X99.104 Y119.469
G1 F900 X106.784 Y127.149 E169.15519
G0 F9000 X106.218 Y127.149
G1 F900 X99.104 Y120.034 E170.35853
G0 F9000 X99.104 Y120.600
G1 F900 X105.653 Y127.149 E171.46623
G0 F9000 X105.087 Y127.149
G1 F900 X99.104 Y121.166 E172.47820
G0 F9000 X99.104 Y121.731
G1 F900 X104.521 Y127.149 E173.39451
G0 F9000 X103.956 Y127.149
G1 F900 X99.104 Y122.297 E174.21518
G0 F9000 X99.104 Y122.863
G1 F900 X103.390 Y127.149 E174.94011
G0 F9000 X102.824 Y127.149
G1 F900 X99.104 Y123.429 E175.56931
G0 F9000 X99.104 Y123.994
G1 F900 X102.258 Y127.149 E176.10287
G0 F9000 X101.693 Y127.149
G1 F900 X99.104 Y124.560 E176.54077
G0 F9000 X99.104 Y125.126
G1 F900 X101.127 Y127.149 E176.88294
G0 F9000 X100.561 Y127.149
G1 F900 X99.104 Y125.691 E177.12946
G0 F9000 X99.104 Y126.257
G1 F900 X99.996 Y127.149 E177.28033
G0 F9000 X99.430 Y127.149
G1 F900 X99.104 Y126.823 E177.33547
G0 F9000 X99.547 Y97.850
G1 F900 X128.846 Y127.149 E182.29110
G0 F9000 X129.411 Y127.149
G1 F900 X100.112 Y97.850 E187.24673
G0 F9000 X100.678 Y97.850
G1 F900 X129.977 Y127.149 E192.20237
G0 F9000 X130.543 Y127.149
G1 F900 X101.244 Y97.850 E197.15800
G0 F9000 X101.809 Y97.850
G1 F900 X130.894 Y126.934 E202.07735
G0 F9000 X130.894 Y126.369
G1 F900 X102.375 Y97.850 E206.90105
G0 F9000 X102.941 Y97.850
G1 F900 X130.894 Y125.803 E211.62902
G0 F9000 X130.894 Y125.237
G1 F900 X103.506 Y97.850 E216.26134
G0 F9000 X104.072 Y97.850
G1 F900 X130.894 Y124.672 E220.79801
G0 F9000 X130.894 Y124.106
G1 F900 X104.638 Y97.850 E225.23895
G0 F9000 X105.204 Y97.850
G1 F900 X130.894 Y123.540 E229.58415
G0 F9000 X130.894 Y122.975
G1 F900 X105.769 Y97.850 E233.83379
G0 F9000 X106.335 Y97.850
G1 F900 X130.894 Y122.409 E237.98770
G0 F9000 X130.894 Y121.843
G1 F900 X106.901 Y97.850 E242.04588
G0 F9000 X107.466 Y97.850
G1 F900 X130.894 Y121.278 E246.00849
G0 F9000 X130.894 Y120.712
G1 F900 X108.032 Y97.850 E249.87537
G0 F9000 X108.598 Y97.850
G1 F900 X130.894 Y120.146 E253.64651
G0 F9000 X130.894 Y119.580
G1 F900 X109.163 Y97.850 E257.32200
G0 F9000 X109.729 Y97.850
G1 F900 X130.894 Y119.015 E260.90185
G0 F9000 X130.894 Y118.449
G1 F900 X110.295 Y97.850 E264.38597
G0 F9000 X110.860 Y97.850
G1 F900 X130.894 Y117.883 E267.77443
G0 F9000 X130.894 Y117.318
G1 F900 X111.426 Y97.850 E271.06725
G0 F9000 X111.992 Y97.850
G1 F900 X130.894 Y116.752 E274.26433
G0 F9000 X130.894 Y116.186
G1 F900 X112.557 Y97.850 E277.36576
G0 F9000 X113.123 Y97.850
G1 F900 X130.894 Y115.621 E280.37155
G0 F9000 X130.894 Y115.055
G1 F900 X113.689 Y97.850 E283.28160
G0 F9000 X114.255 Y97.850
G1 F900 X130.894 Y114.489 E286.09592
G0 F9000 X130.894 Y113.924
G1 F900 X114.820 Y97.850 E288.81468
G0 F9000 X115.386 Y97.850
G1 F900 X130.894 Y113.358 E291.43770
G0 F9000 X130.894 Y112.792
G1 F900 X115.952 Y97.850 E293.96499
G0 F9000 X116.517 Y97.850
G1 F900 X130.894 Y112.227 E296.39671
G0 F9000 X130.894 Y111.661
G1 F900 X117.083 Y97.850 E298.73271
G0 F9000 X117.649 Y97.850
G1 F900 X130.894 Y111.095 E300.97296
G0 F9000 X130.894 Y110.529
G1 F900 X118.214 Y97.850 E303.11757
G0 F9000 X118.780 Y97.850
G1 F900 X130.894 Y109.964 E305.16654
G0 F9000 X130.894 Y109.398
G1 F900 X119.346 Y97.850 E307.11976
G0 F9000 X119.911 Y97.850
G1 F900 X130.894 Y108.832 E308.97734
G0 F9000 X130.894 Y108.267
G1 F900 X120.477 Y97.850 E310.73927
G0 F9000 X121.043 Y97.850
G1 F900 X130.894 Y107.701 E312.40547
G0 F9000 X130.894 Y107.135
G1 F900 X121.608 Y97.850 E313.97602
G0 F9000 X122.174 Y97.850
G1 F900 X130.894 Y106.570 E315.45092
G0 F9000 X130.894 Y106.004
G1 F900 X122.740 Y97.850 E316.83009
G0 F9000 X123.305 Y97.850
G1 F900 X130.894 Y105.438 E318.11361
G0 F9000 X130.894 Y104.873
G1 F900 X123.871 Y97.850 E319.30148
G0 F9000 X124.437 Y97.850
G1 F900 X130.894 Y104.307 E320.39361
G0 F9000 X130.894 Y103.741
G1 F900 X125.003 Y97.850 E321.39002
G0 F9000 X125.568 Y97.850
G1 F900 X130.894 Y103.176 E322.29086
G0 F9000 X130.894 Y102.610
G1 F900 X126.134 Y97.850 E323.09596
G0 F9000 X126.700 Y97.850
G1 F900 X130.894 Y102.044 E323.80533
G0 F9000 X130.894 Y101.479
G1 F900 X127.265 Y97.850 E324.41914
G0 F9000 X127.831 Y97.850
G1 F900 X130.894 Y100.913 E324.93722
G0 F9000 X130.894 Y100.347
G1 F900 X128.397 Y97.850 E325.35956
G0 F9000 X128.962 Y97.850
G1 F900 X130.894 Y99.781 E325.68626
G0 F9000 X130.894 Y99.216
G1 F900 X129.528 Y97.850 E325.91730
G0 F9000 X130.094 Y97.850
G1 F900 X130.894 Y98.650 E326.05261
G0 F9000 X130.894 Y98.084
G1 F900 X130.659 Y97.850 E326.09228
;LAYER:1
M106 S127
G0 F9000 X131.035 Y97.710 Z0.399
;TYPE:WALL-INNER
G1 F1380 X131.035 Y127.290 E327.27548
G1 X98.965 Y127.290 E328.55828
G1 X98.965 Y97.710 E329.74148
G1 X131.035 Y97.710 E331.02428
G0 F9000 X131.435 Y97.310
;TYPE:WALL-OUTER
G1 F1380 X131.435 Y127.690 E332.23948
G1 X98.565 Y127.690 E333.55428
G1 X98.565 Y97.310 E334.76948
G1 X131.435 Y97.310 E336.08428
G0 F9000 X130.686 Y97.850
;TYPE:SKIN
G1 F1380 X101.387 Y127.149 E337.74168
G0 F9000 X101.952 Y127.149
G1 F1380 X130.894 Y98.207 E339.37888
G0 F9000 X130.894 Y98.773
G1 F1380 X102.518 Y127.149 E340.98407
G0 F9000 X103.084 Y127.149
G1 F1380 X130.894 Y99.339 E342.55724
G0 F9000 X130.894 Y99.904
G1 F1380 X103.649 Y127.149 E344.09845
G0 F9000 X104.215 Y127.149
G1 F1380 X130.894 Y100.470 E345.60765
G0 F9000 X130.894 Y101.036
G1 F1380 X104.781 Y127.149 E347.08482
G0 F9000 X105.346 Y127.149
G1 F1380 X130.894 Y101.602 E348.53001
G0 F9000 X130.894 Y102.167
G1 F1380 X105.912 Y127.149 E349.94320
G0 F9000 X106.478 Y127.149
G1 F1380 X130.894 Y102.733 E351.32438
G0 F9000 X130.894 Y103.299
G1 F1380 X107.043 Y127.149 E352.67357
G0 F9000 X107.609 Y127.149
G1 F1380 X130.894 Y103.864 E353.99077
G0 F9000 X130.894 Y104.430
G1 F1380 X108.175 Y127.149 E355.27595
G0 F9000 X108.741 Y127.149
G1 F1380 X130.894 Y104.996 E356.52911
G0 F9000 X130.894 Y105.561
G1 F1380 X109.306 Y127.149 E357.75031
G0 F9000 X109.872 Y127.149
G1 F1380 X130.894 Y106.127 E358.93949
G0 F9000 X130.894 Y106.693
G1 F1380 X110.438 Y127.149 E360.09666
G0 F9000 X111.003 Y127.149
G1 F1380 X130.894 Y107.258 E361.22187
G0 F9000 X130.894 Y107.824
G1 F1380 X111.569 Y127.149 E362.31505
G0 F9000 X112.135 Y127.149
G1 F1380 X130.894 Y108.390 E363.37622
G0 F9000 X130.894 Y108.955
G1 F1380 X112.700 Y127.149 E364.40543
G0 F9000 X113.266 Y127.149
G1 F1380 X130.894 Y109.521 E365.40262
G0 F9000 X130.894 Y110.087
G1 F1380 X113.832 Y127.149 E366.36779
G0 F9000 X114.397 Y127.149
G1 F1380 X130.894 Y110.653 E367.30098
G0 F9000 X130.894 Y111.218
G1 F1380 X114.963 Y127.149 E368.20217
G0 F9000 X115.529 Y127.149
G1 F1380 X130.894 Y111.784 E369.07134
G0 F9000 X130.894 Y112.350
G1 F1380 X116.094 Y127.149 E369.90853
G0 F9000 X116.660 Y127.149
G1 F1380 X130.894 Y112.915 E370.71373
G0 F9000 X130.894 Y113.481
G1 F1380 X117.226 Y127.149 E371.48691
G0 F9000 X117.791 Y127.149
G1 F1380 X130.894 Y114.047 E372.22810
G0 F9000 X130.894 Y114.612
G1 F1380 X118.357 Y127.149 E372.93730
G0 F9000 X118.923 Y127.149
G1 F1380 X130.894 Y115.178 E373.61448
G0 F9000 X130.894 Y115.744
G1 F1380 X119.489 Y127.149 E374.25964
G0 F9000 X120.054 Y127.149
G1 F1380 X130.894 Y116.309 E374.87284
G0 F9000 X130.894 Y116.875
G1 F1380 X120.620 Y127.149 E375.45403
G0 F9000 X121.186 Y127.149
G1 F1380 X130.894 Y117.441 E376.00320
G0 F9000 X130.894 Y118.006
G1 F1380 X121.751 Y127.149 E376.52040
G0 F9000 X122.317 Y127.149
G1 F1380 X130.894 Y118.572 E377.00559
G0 F9000 X130.894 Y119.138
G1 F1380 X122.883 Y127.149 E377.45876
G0 F9000 X123.448 Y127.149
G1 F1380 X130.894 Y119.703 E377.87997
G0 F9000 X130.894 Y120.269
G1 F1380 X124.014 Y127.149 E378.26916
G0 F9000 X124.580 Y127.149
G1 F1380 X130.894 Y120.835 E378.62634
G0 F9000 X130.894 Y121.401
G1 F1380 X125.145 Y127.149 E378.95152
G0 F9000 X125.711 Y127.149
G1 F1380 X130.894 Y121.966 E379.24472
G0 F9000 X130.894 Y122.532
G1 F1380 X126.277 Y127.149 E379.50589
G0 F9000 X126.842 Y127.149
G1 F1380 X130.894 Y123.098 E379.73508
G0 F9000 X130.894 Y123.663
G1 F1380 X127.408 Y127.149 E379.93228
G0 F9000 X127.974 Y127.149
G1 F1380 X130.894 Y124.229 E380.09746
G0 F9000 X130.894 Y124.795
G1 F1380 X128.539 Y127.149 E380.23065
G0 F9000 X129.105 Y127.149
G1 F1380 X130.894 Y125.360 E380.33185
G0 F9000 X130.894 Y125.926
G1 F1380 X129.671 Y127.149 E380.40103
G0 F9000 X130.237 Y127.149
G1 F1380 X130.894 Y126.492 E380.43820
G0 F9000 X130.894 Y127.057
G1 F1380 X130.802 Y127.149 E380.44340
G0 F9000 X130.121 Y97.850
G1 F1380 X100.821 Y127.149 E382.10083
G0 F9000 X100.255 Y127.149
G1 F1380 X129.555 Y97.850 E383.75826
G0 F9000 X128.989 Y97.850
G1 F1380 X99.690 Y127.149 E385.41567
G0 F9000 X99.124 Y127.149
G1 F1380 X128.424 Y97.850 E387.07310
G0 F9000 X127.858 Y97.850
G1 F1380 X99.105 Y126.603 E388.69961
G0 F9000 X99.105 Y126.037
G1 F1380 X127.292 Y97.850 E390.29411
G0 F9000 X126.726 Y97.850
G1 F1380 X99.105 Y125.471 E391.85659
G0 F9000 X99.105 Y124.906
G1 F1380 X126.161 Y97.850 E393.38711
G0 F9000 X125.595 Y97.850
G1 F1380 X99.105 Y124.340 E394.88561
G0 F9000 X99.105 Y123.774
G1 F1380 X125.029 Y97.850 E396.35209
G0 F9000 X124.464 Y97.850
G1 F1380 X99.105 Y123.209 E397.78661
G0 F9000 X99.105 Y122.643
G1 F1380 X123.898 Y97.850 E399.18912
G0 F9000 X123.332 Y97.850
G1 F1380 X99.105 Y122.077 E400.55960
G0 F9000 X99.105 Y121.512
G1 F1380 X122.767 Y97.850 E401.89813
G0 F9000 X122.201 Y97.850
G1 F1380 X99.105 Y120.946 E403.20463
G0 F9000 X99.105 Y120.380
G1 F1380 X121.635 Y97.850 E404.47912
G0 F9000 X121.070 Y97.850
G1 F1380 X99.105 Y119.815 E405.72165
G0 F9000 X99.105 Y119.249
G1 F1380 X120.504 Y97.850 E406.93216
G0 F9000 X119.938 Y97.850
G1 F1380 X99.105 Y118.683 E408.11065
G0 F9000 X99.105 Y118.117
G1 F1380 X119.373 Y97.850 E409.25716
G0 F9000 X118.807 Y97.850
G1 F1380 X99.105 Y117.552 E410.37167
G0 F9000 X99.105 Y116.986
G1 F1380 X118.241 Y97.850 E411.45417
G0 F9000 X117.676 Y97.850
G1 F1380 X99.105 Y116.420 E412.50467
G0 F9000 X99.105 Y115.855
G1 F1380 X117.110 Y97.850 E413.52319
G0 F9000 X116.544 Y97.850
G1 F1380 X99.105 Y115.289 E414.50969
G0 F9000 X99.105 Y114.723
G1 F1380 X115.978 Y97.850 E415.46417
G0 F9000 X115.413 Y97.850
G1 F1380 X99.105 Y114.158 E416.38669
G0 F9000 X99.105 Y113.592
G1 F1380 X114.847 Y97.850 E417.27719
G0 F9000 X114.281 Y97.850
G1 F1380 X99.105 Y113.026 E418.13567
G0 F9000 X99.105 Y112.461
G1 F1380 X113.716 Y97.850 E418.96220
G0 F9000 X113.150 Y97.850
G1 F1380 X99.105 Y111.895 E419.75670
G0 F9000 X99.105 Y111.329
G1 F1380 X112.584 Y97.850 E420.51919
G0 F9000 X112.019 Y97.850
G1 F1380 X99.105 Y110.764 E421.24972
G0 F9000 X99.105 Y110.198
G1 F1380 X111.453 Y97.850 E421.94822
G0 F9000 X110.887 Y97.850
G1 F1380 X99.105 Y109.632 E422.61471
G0 F9000 X99.105 Y109.066
G1 F1380 X110.322 Y97.850 E423.24922
G0 F9000 X109.756 Y97.850
G1 F1380 X99.105 Y108.501 E423.85173
G0 F9000 X99.105 Y107.935
G1 F1380 X109.190 Y97.850 E424.42222
G0 F9000 X108.625 Y97.850
G1 F1380 X99.105 Y107.369 E424.96073
G0 F9000 X99.105 Y106.804
G1 F1380 X108.059 Y97.850 E425.46724
G0 F9000 X107.493 Y97.850
G1 F1380 X99.105 Y106.238 E425.94174
G0 F9000 X99.105 Y105.672
G1 F1380 X106.927 Y97.850 E426.38422
G0 F9000 X106.362 Y97.850
G1 F1380 X99.105 Y105.107 E426.79473
G0 F9000 X99.105 Y104.541
G1 F1380 X105.796 Y97.850 E427.17323
G0 F9000 X105.230 Y97.850
G1 F1380 X99.105 Y103.975 E427.51972
G0 F9000 X99.105 Y103.410
G1 F1380 X104.665 Y97.850 E427.83424
G0 F9000 X104.099 Y97.850
G1 F1380 X99.105 Y102.844 E428.11674
G0 F9000 X99.105 Y102.278
G1 F1380 X103.533 Y97.850 E428.36723
G0 F9000 X102.968 Y97.850
G1 F1380 X99.105 Y101.713 E428.58575
G0 F9000 X99.105 Y101.147
G1 F1380 X102.402 Y97.850 E428.77226
G0 F9000 X101.836 Y97.850
G1 F1380 X99.105 Y100.581 E428.92675
G0 F9000 X99.105 Y100.016
G1 F1380 X101.271 Y97.850 E429.04927
G0 F9000 X100.705 Y97.850
G1 F1380 X99.105 Y99.450 E429.13978
G0 F9000 X99.105 Y98.884
G1 F1380 X100.139 Y97.850 E429.19827
G0 F9000 X99.574 Y97.850
G1 F1380 X99.105 Y98.318 E429.22478
;LAYER:2
M106 S255
G0 F9000 X98.965 Y97.710 Z0.499
;TYPE:WALL-INNER
G1 F1920 X131.035 Y97.710 E430.50758
G1 X131.035 Y127.290 E431.69078
G1 X98.965 Y127.290 E432.97358
G1 X98.965 Y97.710 E434.15678
G0 F9000 X98.565 Y97.310
;TYPE:WALL-OUTER
G1 F1920 X131.435 Y97.310 E435.47158
G1 X131.435 Y127.690 E436.68678
G1 X98.565 Y127.690 E438.00158
G1 X98.565 Y97.310 E439.21678
G0 F9000 X99.104 Y97.973
;TYPE:SKIN
G1 F1920 X128.280 Y127.149 E440.86722
G0 F9000 X127.714 Y127.149
G1 F1920 X99.104 Y98.538 E442.48568
G0 F9000 X99.104 Y99.104
G1 F1920 X127.149 Y127.149 E444.07214
G0 F9000 X126.583 Y127.149
G1 F1920 X99.104 Y99.670 E445.62659
G0 F9000 X99.104 Y100.235
G1 F1920 X126.017 Y127.149 E447.14904
G0 F9000 X125.452 Y127.149
G1 F1920 X99.104 Y100.801 E448.63951
G0 F9000 X99.104 Y101.367
G1 F1920 X124.886 Y127.149 E450.09796
G0 F9000 X124.320 Y127.149
G1 F1920 X99.104 Y101.932 E451.52442
G0 F9000 X99.104 Y102.498
G1 F1920 X123.755 Y127.149 E452.91889
G0 F9000 X123.189 Y127.149
G1 F1920 X99.104 Y103.064 E454.28135
G0 F9000 X99.104 Y103.630
G1 F1920 X122.623 Y127.149 E455.61178
G0 F9000 X122.057 Y127.149
G1 F1920 X99.104 Y104.195 E456.91023
G0 F9000 X99.104 Y104.761
G1 F1920 X121.492 Y127.149 E458.17669
G0 F9000 X120.926 Y127.149
G1 F1920 X99.104 Y105.327 E459.41112
G0 F9000 X99.104 Y105.892
G1 F1920 X120.360 Y127.149 E460.61357
G0 F9000 X119.795 Y127.149
G1 F1920 X99.104 Y106.458 E461.78403
G0 F9000 X99.104 Y107.024
G1 F1920 X119.229 Y127.149 E462.92248
G0 F9000 X118.663 Y127.149
G1 F1920 X99.104 Y107.589 E464.02893
G0 F9000 X99.104 Y108.155
G1 F1920 X118.098 Y127.149 E465.10339
G0 F9000 X117.532 Y127.149
G1 F1920 X99.104 Y108.721 E466.14584
G0 F9000 X99.104 Y109.286
G1 F1920 X116.966 Y127.149 E467.15629
G0 F9000 X116.401 Y127.149
G1 F1920 X99.104 Y109.852 E468.13476
G0 F9000 X99.104 Y110.418
G1 F1920 X115.835 Y127.149 E469.08121
G0 F9000 X115.269 Y127.149
G1 F1920 X99.104 Y110.983 E469.99566
G0 F9000 X99.104 Y111.549
G1 F1920 X114.704 Y127.149 E470.87813
G0 F9000 X114.138 Y127.149
G1 F1920 X99.104 Y112.115 E471.72859
G0 F9000 X99.104 Y112.681
G1 F1920 X113.572 Y127.149 E472.54702
G0 F9000 X113.006 Y127.149
G1 F1920 X99.104 Y113.246 E473.33346
G0 F9000 X99.104 Y113.812
G1 F1920 X112.441 Y127.149 E474.08792
G0 F9000 X111.875 Y127.149
G1 F1920 X99.104 Y114.378 E474.81035
G0 F9000 X99.104 Y114.943
G1 F1920 X111.309 Y127.149 E475.50080
G0 F9000 X110.744 Y127.149
G1 F1920 X99.104 Y115.509 E476.15926
G0 F9000 X99.104 Y116.075
G1 F1920 X110.178 Y127.149 E476.78570
G0 F9000 X109.612 Y127.149
G1 F1920 X99.104 Y116.640 E477.38015
G0 F9000 X99.104 Y117.206
G1 F1920 X109.047 Y127.149 E477.94261
G0 F9000 X108.481 Y127.149
G1 F1920 X99.104 Y117.772 E478.47305
G0 F9000 X99.104 Y118.337
G1 F1920 X107.915 Y127.149 E478.97151
G0 F9000 X107.350 Y127.149
G1 F1920 X99.104 Y118.903 E479.43797
G0 F9000 X99.104 Y119.469
G1 F1920 X106.784 Y127.149 E479.87242
G0 F9000 X106.218 Y127.149
G1 F1920 X99.104 Y120.034 E480.27488
G0 F9000 X99.104 Y120.600
G1 F1920 X105.653 Y127.149 E480.64534
G0 F9000 X105.087 Y127.149
G1 F1920 X99.104 Y121.166 E480.98379
G0 F9000 X99.104 Y121.731
G1 F1920 X104.521 Y127.149 E481.29025
G0 F9000 X103.956 Y127.149
G1 F1920 X99.104 Y122.297 E481.56472
G0 F9000 X99.104 Y122.863
G1 F1920 X103.390 Y127.149 E481.80718
G0 F9000 X102.824 Y127.149
G1 F1920 X99.104 Y123.429 E482.01761
G0 F9000 X99.104 Y123.994
G1 F1920 X102.258 Y127.149 E482.19606
G0 F9000 X101.693 Y127.149
G1 F1920 X99.104 Y124.560 E482.34251
G0 F9000 X99.104 Y125.126
G1 F1920 X101.127 Y127.149 E482.45695
G0 F9000 X100.561 Y127.149
G1 F1920 X99.104 Y125.691 E482.53940
G0 F9000 X99.104 Y126.257
G1 F1920 X99.996 Y127.149 E482.58986
G0 F9000 X99.430 Y127.149
G1 F1920 X99.104 Y126.823 E482.60830
G0 F9000 X99.547 Y97.850
G1 F1920 X128.846 Y127.149 E484.26570
G0 F9000 X129.411 Y127.149
G1 F1920 X100.112 Y97.850 E485.92310
G0 F9000 X100.678 Y97.850
G1 F1920 X129.977 Y127.149 E487.58051
G0 F9000 X130.543 Y127.149
G1 F1920 X101.244 Y97.850 E489.23791
G0 F9000 X101.809 Y97.850
G1 F1920 X130.894 Y126.934 E490.88317
G0 F9000 X130.894 Y126.369
G1 F1920 X102.375 Y97.850 E492.49645
G0 F9000 X102.941 Y97.850
G1 F1920 X130.894 Y125.803 E494.07771
G0 F9000 X130.894 Y125.237
G1 F1920 X103.506 Y97.850 E495.62698
G0 F9000 X104.072 Y97.850
G1 F1920 X130.894 Y124.672 E497.14427
G0 F9000 X130.894 Y124.106
G1 F1920 X104.638 Y97.850 E498.62953
G0 F9000 X105.204 Y97.850
G1 F1920 X130.894 Y123.540 E500.08278
G0 F9000 X130.894 Y122.975
G1 F1920 X105.769 Y97.850 E501.50406
G0 F9000 X106.335 Y97.850
G1 F1920 X130.894 Y122.409 E502.89333
G0 F9000 X130.894 Y121.843
G1 F1920 X106.901 Y97.850 E504.25058
G0 F9000 X107.466 Y97.850
G1 F1920 X130.894 Y121.278 E505.57586
G0 F9000 X130.894 Y120.712
G1 F1920 X108.032 Y97.850 E506.86913
G0 F9000 X108.598 Y97.850
G1 F1920 X130.894 Y120.146 E508.13039
G0 F9000 X130.894 Y119.580
G1 F1920 X109.163 Y97.850 E509.35965
G0 F9000 X109.729 Y97.850
G1 F1920 X130.894 Y119.015 E510.55692
G0 F9000 X130.894 Y118.449
G1 F1920 X110.295 Y97.850 E511.72218
G0 F9000 X110.860 Y97.850
G1 F1920 X130.894 Y117.883 E512.85544
G0 F9000 X130.894 Y117.318
G1 F1920 X111.426 Y97.850 E513.95672
G0 F9000 X111.992 Y97.850
G1 F1920 X130.894 Y116.752 E515.02598
G0 F9000 X130.894 Y116.186
G1 F1920 X112.557 Y97.850 E516.06325
G0 F9000 X113.123 Y97.850
G1 F1920 X130.894 Y115.621 E517.06853
G0 F9000 X130.894 Y115.055
G1 F1920 X113.689 Y97.850 E518.04179
G0 F9000 X114.255 Y97.850
G1 F1920 X130.894 Y114.489 E518.98303
G0 F9000 X130.894 Y113.924
G1 F1920 X114.820 Y97.850 E519.89232
G0 F9000 X115.386 Y97.850
G1 F1920 X130.894 Y113.358 E520.76958
G0 F9000 X130.894 Y112.792
G1 F1920 X115.952 Y97.850 E521.61483
G0 F9000 X116.517 Y97.850
G1 F1920 X130.894 Y112.227 E522.42811
G0 F9000 X130.894 Y111.661
G1 F1920 X117.083 Y97.850 E523.20938
G0 F9000 X117.649 Y97.850
G1 F1920 X130.894 Y111.095 E523.95863
G0 F9000 X130.894 Y110.529
G1 F1920 X118.214 Y97.850 E524.67589
G0 F9000 X118.780 Y97.850
G1 F1920 X130.894 Y109.964 E525.36116
G0 F9000 X130.894 Y109.398
G1 F1920 X119.346 Y97.850 E526.01442
G0 F9000 X119.911 Y97.850
G1 F1920 X130.894 Y108.832 E526.63568
G0 F9000 X130.894 Y108.267
G1 F1920 X120.477 Y97.850 E527.22496
G0 F9000 X121.043 Y97.850
G1 F1920 X130.894 Y107.701 E527.78221
G0 F9000 X130.894 Y107.135
G1 F1920 X121.608 Y97.850 E528.30748
G0 F9000 X122.174 Y97.850
G1 F1920 X130.894 Y106.570 E528.80076
G0 F9000 X130.894 Y106.004
G1 F1920 X122.740 Y97.850 E529.26202
G0 F9000 X123.305 Y97.850
G1 F1920 X130.894 Y105.438 E529.69129
G0 F9000 X130.894 Y104.873
G1 F1920 X123.871 Y97.850 E530.08857
G0 F9000 X124.437 Y97.850
G1 F1920 X130.894 Y104.307 E530.45383
G0 F9000 X130.894 Y103.741
G1 F1920 X125.003 Y97.850 E530.78708
G0 F9000 X125.568 Y97.850
G1 F1920 X130.894 Y103.176 E531.08836
G0 F9000 X130.894 Y102.610
G1 F1920 X126.134 Y97.850 E531.35763
G0 F9000 X126.700 Y97.850
G1 F1920 X130.894 Y102.044 E531.59488
G0 F9000 X130.894 Y101.479
G1 F1920 X127.265 Y97.850 E531.80016
G0 F9000 X127.831 Y97.850
G1 F1920 X130.894 Y100.913 E531.97343
G0 F9000 X130.894 Y100.347
G1 F1920 X128.397 Y97.850 E532.11468
G0 F9000 X128.962 Y97.850
G1 F1920 X130.894 Y99.781 E532.22395
G0 F9000 X130.894 Y99.216
G1 F1920 X129.528 Y97.850 E532.30122
G0 F9000 X130.094 Y97.850
G1 F1920 X130.894 Y98.650 E532.34647
G0 F9000 X130.894 Y98.084
G1 F1920 X130.659 Y97.850 E532.35974
;LAYER:3
G0 F9000 X131.035 Y97.710 Z0.599
;TYPE:WALL-INNER
G1 F2400 X131.035 Y127.290 E533.54294
G1 X98.965 Y127.290 E534.82574
G1 X98.965 Y97.710 E536.00894
G1 X131.035 Y97.710 E537.29174
G0 F9000 X131.435 Y97.310
;TYPE:WALL-OUTER
G1 F2400 X131.435 Y127.690 E538.50694
G1 X98.565 Y127.690 E539.82174
G1 X98.565 Y97.310 E541.03694
G1 X131.435 Y97.310 E542.35174
G0 F9000 X130.686 Y97.850
;TYPE:SKIN
G1 F2400 X101.387 Y127.149 E544.00914
G0 F9000 X101.952 Y127.149
G1 F2400 X130.894 Y98.207 E545.64635
G0 F9000 X130.894 Y98.773
G1 F2400 X102.518 Y127.149 E547.25154
G0 F9000 X103.084 Y127.149
G1 F2400 X130.894 Y99.339 E548.82471
G0 F9000 X130.894 Y99.904
G1 F2400 X103.649 Y127.149 E550.36592
G0 F9000 X104.215 Y127.149
G1 F2400 X130.894 Y100.470 E551.87511
G0 F9000 X130.894 Y101.036
G1 F2400 X104.781 Y127.149 E553.35228
G0 F9000 X105.346 Y127.149
G1 F2400 X130.894 Y101.602 E554.79747
G0 F9000 X130.894 Y102.167
G1 F2400 X105.912 Y127.149 E556.21066
G0 F9000 X106.478 Y127.149
G1 F2400 X130.894 Y102.733 E557.59184
G0 F9000 X130.894 Y103.299
G1 F2400 X107.043 Y127.149 E558.94103
G0 F9000 X107.609 Y127.149
G1 F2400 X130.894 Y103.864 E560.25823
G0 F9000 X130.894 Y104.430
G1 F2400 X108.175 Y127.149 E561.54341
G0 F9000 X108.741 Y127.149
G1 F2400 X130.894 Y104.996 E562.79657
G0 F9000 X130.894 Y105.561
G1 F2400 X109.306 Y127.149 E564.01777
G0 F9000 X109.872 Y127.149
G1 F2400 X130.894 Y106.127 E565.20696
G0 F9000 X130.894 Y106.693
G1 F2400 X110.438 Y127.149 E566.36412
G0 F9000 X111.003 Y127.149
G1 F2400 X130.894 Y107.258 E567.48933
G0 F9000 X130.894 Y107.824
G1 F2400 X111.569 Y127.149 E568.58252
G0 F9000 X112.135 Y127.149
G1 F2400 X130.894 Y108.390 E569.64368
G0 F9000 X130.894 Y108.955
G1 F2400 X112.700 Y127.149 E570.67289
G0 F9000 X113.266 Y127.149
G1 F2400 X130.894 Y109.521 E571.67008
G0 F9000 X130.894 Y110.087
G1 F2400 X113.832 Y127.149 E572.63526
G0 F9000 X114.397 Y127.149
G1 F2400 X130.894 Y110.653 E573.56844
G0 F9000 X130.894 Y111.218
G1 F2400 X114.963 Y127.149 E574.46963
G0 F9000 X115.529 Y127.149
G1 F2400 X130.894 Y111.784 E575.33881
G0 F9000 X130.894 Y112.350
G1 F2400 X116.094 Y127.149 E576.17599
G0 F9000 X116.660 Y127.149
G1 F2400 X130.894 Y112.915 E576.98119
G0 F9000 X130.894 Y113.481
G1 F2400 X117.226 Y127.149 E577.75437
G0 F9000 X117.791 Y127.149
G1 F2400 X130.894 Y114.047 E578.49556
G0 F9000 X130.894 Y114.612
G1 F2400 X118.357 Y127.149 E579.20476
G0 F9000 X118.923 Y127.149
G1 F2400 X130.894 Y115.178 E579.88194
G0 F9000 X130.894 Y115.744
G1 F2400 X119.489 Y127.149 E580.52710
G0 F9000 X120.054 Y127.149
G1 F2400 X130.894 Y116.309 E581.14031
G0 F9000 X130.894 Y116.875
G1 F2400 X120.620 Y127.149 E581.72149
G0 F9000 X121.186 Y127.149
G1 F2400 X130.894 Y117.441 E582.27066
G0 F9000 X130.894 Y118.006
G1 F2400 X121.751 Y127.149 E582.78787
G0 F9000 X122.317 Y127.149
G1 F2400 X130.894 Y118.572 E583.27305
G0 F9000 X130.894 Y119.138
G1 F2400 X122.883 Y127.149 E583.72623
G0 F9000 X123.448 Y127.149
G1 F2400 X130.894 Y119.703 E584.14743
G0 F9000 X130.894 Y120.269
G1 F2400 X124.014 Y127.149 E584.53663
G0 F9000 X124.580 Y127.149
G1 F2400 X130.894 Y120.835 E584.89380
G0 F9000 X130.894 Y121.401
G1 F2400 X125.145 Y127.149 E585.21898
G0 F9000 X125.711 Y127.149
G1 F2400 X130.894 Y121.966 E585.51218
G0 F9000 X130.894 Y122.532
G1 F2400 X126.277 Y127.149 E585.77336
G0 F9000 X126.842 Y127.149
G1 F2400 X130.894 Y123.098 E586.00254
G0 F9000 X130.894 Y123.663
G1 F2400 X127.408 Y127.149 E586.19974
G0 F9000 X127.974 Y127.149
G1 F2400 X130.894 Y124.229 E586.36492
G0 F9000 X130.894 Y124.795
G1 F2400 X128.539 Y127.149 E586.49811
G0 F9000 X129.105 Y127.149
G1 F2400 X130.894 Y125.360 E586.59931
G0 F9000 X130.894 Y125.926
G1 F2400 X129.671 Y127.149 E586.66850
G0 F9000 X130.237 Y127.149
G1 F2400 X130.894 Y126.492 E586.70566
G0 F9000 X130.894 Y127.057
G1 F2400 X130.802 Y127.149 E586.71087
G0 F9000 X130.121 Y97.850
G1 F2400 X100.821 Y127.149 E588.36830
G0 F9000 X100.255 Y127.149
G1 F2400 X129.555 Y97.850 E590.02573
G0 F9000 X128.989 Y97.850
G1 F2400 X99.690 Y127.149 E591.68313
G0 F9000 X99.124 Y127.149
G1 F2400 X128.424 Y97.850 E593.34056
G0 F9000 X127.858 Y97.850
G1 F2400 X99.105 Y126.603 E594.96707
G0 F9000 X99.105 Y126.037
G1 F2400 X127.292 Y97.850 E596.56157
G0 F9000 X126.726 Y97.850
G1 F2400 X99.105 Y125.471 E598.12405
G0 F9000 X99.105 Y124.906
G1 F2400 X126.161 Y97.850 E599.65457
G0 F9000 X125.595 Y97.850
G1 F2400 X99.105 Y124.340 E601.15307
G0 F9000 X99.105 Y123.774
G1 F2400 X125.029 Y97.850 E602.61955
G0 F9000 X124.464 Y97.850
G1 F2400 X99.105 Y123.209 E604.05407
G0 F9000 X99.105 Y122.643
G1 F2400 X123.898 Y97.850 E605.45658
G0 F9000 X123.332 Y97.850
G1 F2400 X99.105 Y122.077 E606.82706
G0 F9000 X99.105 Y121.512
G1 F2400 X122.767 Y97.850 E608.16559
G0 F9000 X122.201 Y97.850
G1 F2400 X99.105 Y120.946 E609.47210
G0 F9000 X99.105 Y120.380
G1 F2400 X121.635 Y97.850 E610.74659
G0 F9000 X121.070 Y97.850
G1 F2400 X99.105 Y119.815 E611.98911
G0 F9000 X99.105 Y119.249
G1 F2400 X120.504 Y97.850 E613.19962
G0 F9000 X119.938 Y97.850
G1 F2400 X99.105 Y118.683 E614.37812
G0 F9000 X99.105 Y118.117
G1 F2400 X119.373 Y97.850 E615.52462
G0 F9000 X118.807 Y97.850
G1 F2400 X99.105 Y117.552 E616.63913
G0 F9000 X99.105 Y116.986
G1 F2400 X118.241 Y97.850 E617.72163
G0 F9000 X117.676 Y97.850
G1 F2400 X99.105 Y116.420 E618.77213
G0 F9000 X99.105 Y115.855
G1 F2400 X117.110 Y97.850 E619.79065
G0 F9000 X116.544 Y97.850
G1 F2400 X99.105 Y115.289 E620.77715
G0 F9000 X99.105 Y114.723
G1 F2400 X115.978 Y97.850 E621.73163
G0 F9000 X115.413 Y97.850
G1 F2400 X99.105 Y114.158 E622.65415
G0 F9000 X99.105 Y113.592
G1 F2400 X114.847 Y97.850 E623.54465
G0 F9000 X114.281 Y97.850
G1 F2400 X99.105 Y113.026 E624.40314
G0 F9000 X99.105 Y112.461
G1 F2400 X113.716 Y97.850 E625.22966
G0 F9000 X113.150 Y97.850
G1 F2400 X99.105 Y111.895 E626.02417
G0 F9000 X99.105 Y111.329
G1 F2400 X112.584 Y97.850 E626.78665
G0 F9000 X112.019 Y97.850
G1 F2400 X99.105 Y110.764 E627.51718
G0 F9000 X99.105 Y110.198
G1 F2400 X111.453 Y97.850 E628.21569
G0 F9000 X110.887 Y97.850
G1 F2400 X99.105 Y109.632 E628.88218
G0 F9000 X99.105 Y109.066
G1 F2400 X110.322 Y97.850 E629.51668
G0 F9000 X109.756 Y97.850
G1 F2400 X99.105 Y108.501 E630.11919
G0 F9000 X99.105 Y107.935
G1 F2400 X109.190 Y97.850 E630.68968
G0 F9000 X108.625 Y97.850
G1 F2400 X99.105 Y107.369 E631.22819
G0 F9000 X99.105 Y106.804
G1 F2400 X108.059 Y97.850 E631.73470
G0 F9000 X107.493 Y97.850
G1 F2400 X99.105 Y106.238 E632.20920
G0 F9000 X99.105 Y105.672
G1 F2400 X106.927 Y97.850 E632.65168
G0 F9000 X106.362 Y97.850
G1 F2400 X99.105 Y105.107 E633.06220
G0 F9000 X99.105 Y104.541
G1 F2400 X105.796 Y97.850 E633.44070
G0 F9000 X105.230 Y97.850
G1 F2400 X99.105 Y103.975 E633.78718
G0 F9000 X99.105 Y103.410
G1 F2400 X104.665 Y97.850 E634.10170
G0 F9000 X104.099 Y97.850
G1 F2400 X99.105 Y102.844 E634.38420
G0 F9000 X99.105 Y102.278
G1 F2400 X103.533 Y97.850 E634.63469
G0 F9000 X102.968 Y97.850
G1 F2400 X99.105 Y101.713 E634.85321
G0 F9000 X99.105 Y101.147
G1 F2400 X102.402 Y97.850 E635.03972
G0 F9000 X101.836 Y97.850
G1 F2400 X99.105 Y100.581 E635.19421
G0 F9000 X99.105 Y100.016
G1 F2400 X101.271 Y97.850 E635.31674
G0 F9000 X100.705 Y97.850
G1 F2400 X99.105 Y99.450 E635.40725
G0 F9000 X99.105 Y98.884
G1 F2400 X100.139 Y97.850 E635.46574
G0 F9000 X99.574 Y97.850
G1 F2400 X99.105 Y98.318 E635.49224
;LAYER:4
G0 F9000 X98.965 Y97.710 Z0.699
;TYPE:WALL-INNER
G1 F3000 X131.035 Y97.710 E636.77504
G1 X131.035 Y127.290 E637.95824
G1 X98.965 Y127.290 E639.24104
G1 X98.965 Y97.710 E640.42424
G0 F9000 X98.565 Y97.310
;TYPE:WALL-OUTER
G1 F3000 X131.435 Y97.310 E641.73904
G1 X131.435 Y127.690 E642.95424
G1 X98.565 Y127.690 E644.26904
G1 X98.565 Y97.310 E645.48424
G0 F9000 X99.104 Y97.973
;TYPE:SKIN
G1 F3000 X128.280 Y127.149 E647.13468
G0 F9000 X127.714 Y127.149
G1 F3000 X99.104 Y98.538 E648.75314
G0 F9000 X99.104 Y99.104
G1 F3000 X127.149 Y127.149 E650.33960
G0 F9000 X126.583 Y127.149
G1 F3000 X99.104 Y99.670 E651.89405
G0 F9000 X99.104 Y100.235
G1 F3000 X126.017 Y127.149 E653.41651
G0 F9000 X125.452 Y127.149
G1 F3000 X99.104 Y100.801 E654.90698
G0 F9000 X99.104 Y101.367
G1 F3000 X124.886 Y127.149 E656.36543
G0 F9000 X124.320 Y127.149
G1 F3000 X99.104 Y101.932 E657.79189
G0 F9000 X99.104 Y102.498
G1 F3000 X123.755 Y127.149 E659.18636
G0 F9000 X123.189 Y127.149
G1 F3000 X99.104 Y103.064 E660.54881
G0 F9000 X99.104 Y103.630
G1 F3000 X122.623 Y127.149 E661.87925
G0 F9000 X122.057 Y127.149
G1 F3000 X99.104 Y104.195 E663.17769
G0 F9000 X99.104 Y104.761
G1 F3000 X121.492 Y127.149 E664.44415
G0 F9000 X120.926 Y127.149
G1 F3000 X99.104 Y105.327 E665.67859
G0 F9000 X99.104 Y105.892
G1 F3000 X120.360 Y127.149 E666.88104
G0 F9000 X119.795 Y127.149
G1 F3000 X99.104 Y106.458 E668.05150
G0 F9000 X99.104 Y107.024
G1 F3000 X119.229 Y127.149 E669.18994
G0 F9000 X118.663 Y127.149
G1 F3000 X99.104 Y107.589 E670.29639
G0 F9000 X99.104 Y108.155
G1 F3000 X118.098 Y127.149 E671.37085
G0 F9000 X117.532 Y127.149
G1 F3000 X99.104 Y108.721 E672.41330
G0 F9000 X99.104 Y109.286
G1 F3000 X116.966 Y127.149 E673.42375
G0 F9000 X116.401 Y127.149
G1 F3000 X99.104 Y109.852 E674.40222
G0 F9000 X99.104 Y110.418
G1 F3000 X115.835 Y127.149 E675.34867
G0 F9000 X115.269 Y127.149
G1 F3000 X99.104 Y110.983 E676.26313
G0 F9000 X99.104 Y111.549
G1 F3000 X114.704 Y127.149 E677.14560
G0 F9000 X114.138 Y127.149
G1 F3000 X99.104 Y112.115 E677.99605
G0 F9000 X99.104 Y112.681
G1 F3000 X113.572 Y127.149 E678.81448
G0 F9000 X113.006 Y127.149
G1 F3000 X99.104 Y113.246 E679.60093
G0 F9000 X99.104 Y113.812
G1 F3000 X112.441 Y127.149 E680.35538
G0 F9000 X111.875 Y127.149
G1 F3000 X99.104 Y114.378 E681.07782
G0 F9000 X99.104 Y114.943
G1 F3000 X111.309 Y127.149 E681.76827
G0 F9000 X110.744 Y127.149
G1 F3000 X99.104 Y115.509 E682.42672
G0 F9000 X99.104 Y116.075
G1 F3000 X110.178 Y127.149 E683.05316
G0 F9000 X109.612 Y127.149
G1 F3000 X99.104 Y116.640 E683.64761
G0 F9000 X99.104 Y117.206
G1 F3000 X109.047 Y127.149 E684.21007
G0 F9000 X108.481 Y127.149
G1 F3000 X99.104 Y117.772 E684.74052
G0 F9000 X99.104 Y118.337
G1 F3000 X107.915 Y127.149 E685.23897
G0 F9000 X107.350 Y127.149
G1 F3000 X99.104 Y118.903 E685.70544
G0 F9000 X99.104 Y119.469
G1 F3000 X106.784 Y127.149 E686.13988
G0 F9000 X106.218 Y127.149
G1 F3000 X99.104 Y120.034 E686.54234
G0 F9000 X99.104 Y120.600
G1 F3000 X105.653 Y127.149 E686.91281
G0 F9000 X105.087 Y127.149
G1 F3000 X99.104 Y121.166 E687.25126
G0 F9000 X99.104 Y121.731
G1 F3000 X104.521 Y127.149 E687.55772
G0 F9000 X103.956 Y127.149
G1 F3000 X99.104 Y122.297 E687.83219
G0 F9000 X99.104 Y122.863
G1 F3000 X103.390 Y127.149 E688.07464
G0 F9000 X102.824 Y127.149
G1 F3000 X99.104 Y123.429 E688.28507
G0 F9000 X99.104 Y123.994
G1 F3000 X102.258 Y127.149 E688.46352
G0 F9000 X101.693 Y127.149
G1 F3000 X99.104 Y124.560 E688.60998
G0 F9000 X99.104 Y125.126
G1 F3000 X101.127 Y127.149 E688.72441
G0 F9000 X100.561 Y127.149
G1 F3000 X99.104 Y125.691 E688.80686
G0 F9000 X99.104 Y126.257
G1 F3000 X99.996 Y127.149 E688.85732
G0 F9000 X99.430 Y127.149
G1 F3000 X99.104 Y126.823 E688.87576
G0 F9000 X99.547 Y97.850
G1 F3000 X128.846 Y127.149 E690.53316
G0 F9000 X129.411 Y127.149
G1 F3000 X100.112 Y97.850 E692.19057
G0 F9000 X100.678 Y97.850
G1 F3000 X129.977 Y127.149 E693.84797
G0 F9000 X130.543 Y127.149
G1 F3000 X101.244 Y97.850 E695.50537
G0 F9000 X101.809 Y97.850
G1 F3000 X130.894 Y126.934 E697.15064
G0 F9000 X130.894 Y126.369
G1 F3000 X102.375 Y97.850 E698.76392
G0 F9000 X102.941 Y97.850
G1 F3000 X130.894 Y125.803 E700.34518
G0 F9000 X130.894 Y125.237
G1 F3000 X103.506 Y97.850 E701.89445
G0 F9000 X104.072 Y97.850
G1 F3000 X130.894 Y124.672 E703.41173
G0 F9000 X130.894 Y124.106
G1 F3000 X104.638 Y97.850 E704.89699
G0 F9000 X105.204 Y97.850
G1 F3000 X130.894 Y123.540 E706.35024
G0 F9000 X130.894 Y122.975
G1 F3000 X105.769 Y97.850 E707.77152
G0 F9000 X106.335 Y97.850
G1 F3000 X130.894 Y122.409 E709.16079
G0 F9000 X130.894 Y121.843
G1 F3000 X106.901 Y97.850 E710.51804
G0 F9000 X107.466 Y97.850
G1 F3000 X130.894 Y121.278 E711.84333
G0 F9000 X130.894 Y120.712
G1 F3000 X108.032 Y97.850 E713.13660
G0 F9000 X108.598 Y97.850
G1 F3000 X130.894 Y120.146 E714.39785
G0 F9000 X130.894 Y119.580
G1 F3000 X109.163 Y97.850 E715.62711
G0 F9000 X109.729 Y97.850
G1 F3000 X130.894 Y119.015 E716.82438
G0 F9000 X130.894 Y118.449
G1 F3000 X110.295 Y97.850 E717.98964
G0 F9000 X110.860 Y97.850
G1 F3000 X130.894 Y117.883 E719.12291
G0 F9000 X130.894 Y117.318
G1 F3000 X111.426 Y97.850 E720.22418
G0 F9000 X111.992 Y97.850
G1 F3000 X130.894 Y116.752 E721.29344
G0 F9000 X130.894 Y116.186
G1 F3000 X112.557 Y97.850 E722.33071
G0 F9000 X113.123 Y97.850
G1 F3000 X130.894 Y115.621 E723.33599
G0 F9000 X130.894 Y115.055
G1 F3000 X113.689 Y97.850 E724.30925
G0 F9000 X114.255 Y97.850
G1 F3000 X130.894 Y114.489 E725.25050
G0 F9000 X130.894 Y113.924
G1 F3000 X114.820 Y97.850 E726.15978
G0 F9000 X115.386 Y97.850
G1 F3000 X130.894 Y113.358 E727.03704
G0 F9000 X130.894 Y112.792
G1 F3000 X115.952 Y97.850 E727.88229
G0 F9000 X116.517 Y97.850
G1 F3000 X130.894 Y112.227 E728.69558
G0 F9000 X130.894 Y111.661
G1 F3000 X117.083 Y97.850 E729.47684
G0 F9000 X117.649 Y97.850
G1 F3000 X130.894 Y111.095 E730.22609
G0 F9000 X130.894 Y110.529
G1 F3000 X118.214 Y97.850 E730.94336
G0 F9000 X118.780 Y97.850
G1 F3000 X130.894 Y109.964 E731.62863
G0 F9000 X130.894 Y109.398
G1 F3000 X119.346 Y97.850 E732.28188
G0 F9000 X119.911 Y97.850
G1 F3000 X130.894 Y108.832 E732.90314
G0 F9000 X130.894 Y108.267
G1 F3000 X120.477 Y97.850 E733.49242
G0 F9000 X121.043 Y97.850
G1 F3000 X130.894 Y107.701 E734.04968
G0 F9000 X130.894 Y107.135
G1 F3000 X121.608 Y97.850 E734.57494
G0 F9000 X122.174 Y97.850
G1 F3000 X130.894 Y106.570 E735.06822
G0 F9000 X130.894 Y106.004
G1 F3000 X122.740 Y97.850 E735.52948
G0 F9000 X123.305 Y97.850
G1 F3000 X130.894 Y105.438 E735.95875
G0 F9000 X130.894 Y104.873
G1 F3000 X123.871 Y97.850 E736.35603
G0 F9000 X124.437 Y97.850
G1 F3000 X130.894 Y104.307 E736.72129
G0 F9000 X130.894 Y103.741
G1 F3000 X125.003 Y97.850 E737.05454
G0 F9000 X125.568 Y97.850
G1 F3000 X130.894 Y103.176 E737.35582
G0 F9000 X130.894 Y102.610
G1 F3000 X126.134 Y97.850 E737.62509
G0 F9000 X126.700 Y97.850
G1 F3000 X130.894 Y102.044 E737.86234
G0 F9000 X130.894 Y101.479
G1 F3000 X127.265 Y97.850 E738.06763
G0 F9000 X127.831 Y97.850
G1 F3000 X130.894 Y100.913 E738.24090
G0 F9000 X130.894 Y100.347
G1 F3000 X128.397 Y97.850 E738.38215
G0 F9000 X128.962 Y97.850
G1 F3000 X130.894 Y99.781 E738.49141
G0 F9000 X130.894 Y99.216
G1 F3000 X129.528 Y97.850 E738.56868
G0 F9000 X130.094 Y97.850
G1 F3000 X130.894 Y98.650 E738.61394
G0 F9000 X130.894 Y98.084
G1 F3000 X130.659 Y97.850 E738.62720
;LAYER:5
G0 F9000 X131.035 Y97.710 Z0.799
;TYPE:WALL-INNER
G1 F3000 X131.035 Y127.290 E739.81040
G1 X98.965 Y127.290 E741.09320
G1 X98.965 Y97.710 E742.27640
G1 X131.035 Y97.710 E743.55920
G0 F9000 X131.435 Y97.310
;TYPE:WALL-OUTER
G1 F3000 X131.435 Y127.690 E744.77440
G1 X98.565 Y127.690 E746.08920
G1 X98.565 Y97.310 E747.30440
G1 X131.435 Y97.310 E748.61920
G0 F9000 X130.686 Y97.850
;TYPE:SKIN
G1 F3000 X101.387 Y127.149 E750.27660
G0 F9000 X101.952 Y127.149
G1 F3000 X130.894 Y98.207 E751.91381
G0 F9000 X130.894 Y98.773
G1 F3000 X102.518 Y127.149 E753.51900
G0 F9000 X103.084 Y127.149
G1 F3000 X130.894 Y99.339 E755.09217
G0 F9000 X130.894 Y99.904
G1 F3000 X103.649 Y127.149 E756.63338
G0 F9000 X104.215 Y127.149
G1 F3000 X130.894 Y100.470 E758.14257
G0 F9000 X130.894 Y101.036
G1 F3000 X104.781 Y127.149 E759.61975
G0 F9000 X105.346 Y127.149
G1 F3000 X130.894 Y101.602 E761.06493
G0 F9000 X130.894 Y102.167
G1 F3000 X105.912 Y127.149 E762.47813
G0 F9000 X106.478 Y127.149
G1 F3000 X130.894 Y102.733 E763.85930
G0 F9000 X130.894 Y103.299
G1 F3000 X107.043 Y127.149 E765.20849
G0 F9000 X107.609 Y127.149
G1 F3000 X130.894 Y103.864 E766.52569
G0 F9000 X130.894 Y104.430
G1 F3000 X108.175 Y127.149 E767.81087
G0 F9000 X108.741 Y127.149
G1 F3000 X130.894 Y104.996 E769.06404
G0 F9000 X130.894 Y105.561
G1 F3000 X109.306 Y127.149 E770.28524
G0 F9000 X109.872 Y127.149
G1 F3000 X130.894 Y106.127 E771.47442
G0 F9000 X130.894 Y106.693
G1 F3000 X110.438 Y127.149 E772.63159
G0 F9000 X111.003 Y127.149
G1 F3000 X130.894 Y107.258 E773.75679
G0 F9000 X130.894 Y107.824
G1 F3000 X111.569 Y127.149 E774.84998
G0 F9000 X112.135 Y127.149
G1 F3000 X130.894 Y108.390 E775.91115
G0 F9000 X130.894 Y108.955
G1 F3000 X112.700 Y127.149 E776.94036
G0 F9000 X113.266 Y127.149
G1 F3000 X130.894 Y109.521 E777.93755
G0 F9000 X130.894 Y110.087
G1 F3000 X113.832 Y127.149 E778.90272
G0 F9000 X114.397 Y127.149
G1 F3000 X130.894 Y110.653 E779.83590
G0 F9000 X130.894 Y111.218
G1 F3000 X114.963 Y127.149 E780.73710
G0 F9000 X115.529 Y127.149
G1 F3000 X130.894 Y111.784 E781.60627
G0 F9000 X130.894 Y112.350
G1 F3000 X116.094 Y127.149 E782.44346
G0 F9000 X116.660 Y127.149
G1 F3000 X130.894 Y112.915 E783.24865
G0 F9000 X130.894 Y113.481
G1 F3000 X117.226 Y127.149 E784.02183
G0 F9000 X117.791 Y127.149
G1 F3000 X130.894 Y114.047 E784.76302
G0 F9000 X130.894 Y114.612
G1 F3000 X118.357 Y127.149 E785.47222
G0 F9000 X118.923 Y127.149
G1 F3000 X130.894 Y115.178 E786.14940
G0 F9000 X130.894 Y115.744
G1 F3000 X119.489 Y127.149 E786.79457
G0 F9000 X120.054 Y127.149
G1 F3000 X130.894 Y116.309 E787.40777
G0 F9000 X130.894 Y116.875
G1 F3000 X120.620 Y127.149 E787.98896
G0 F9000 X121.186 Y127.149
G1 F3000 X130.894 Y117.441 E788.53812
G0 F9000 X130.894 Y118.006
G1 F3000 X121.751 Y127.149 E789.05533
G0 F9000 X122.317 Y127.149
G1 F3000 X130.894 Y118.572 E789.54052
G0 F9000 X130.894 Y119.138
G1 F3000 X122.883 Y127.149 E789.99369
G0 F9000 X123.448 Y127.149
G1 F3000 X130.894 Y119.703 E790.41490
G0 F9000 X130.894 Y120.269
G1 F3000 X124.014 Y127.149 E790.80409
G0 F9000 X124.580 Y127.149
G1 F3000 X130.894 Y120.835 E791.16126
G0 F9000 X130.894 Y121.401
G1 F3000 X125.145 Y127.149 E791.48645
G0 F9000 X125.711 Y127.149
G1 F3000 X130.894 Y121.966 E791.77964
G0 F9000 X130.894 Y122.532
G1 F3000 X126.277 Y127.149 E792.04082
G0 F9000 X126.842 Y127.149
G1 F3000 X130.894 Y123.098 E792.27001
G0 F9000 X130.894 Y123.663
G1 F3000 X127.408 Y127.149 E792.46720
G0 F9000 X127.974 Y127.149
G1 F3000 X130.894 Y124.229 E792.63239
G0 F9000 X130.894 Y124.795
G1 F3000 X128.539 Y127.149 E792.76558
G0 F9000 X129.105 Y127.149
G1 F3000 X130.894 Y125.360 E792.86678
G0 F9000 X130.894 Y125.926
G1 F3000 X129.671 Y127.149 E792.93596
G0 F9000 X130.237 Y127.149
G1 F3000 X130.894 Y126.492 E792.97313
G0 F9000 X130.894 Y127.057
G1 F3000 X130.802 Y127.149 E792.97833
G0 F9000 X130.121 Y97.850
G1 F3000 X100.821 Y127.149 E794.63576
G0 F9000 X100.255 Y127.149
G1 F3000 X129.555 Y97.850 E796.29319
G0 F9000 X128.989 Y97.850
G1 F3000 X99.690 Y127.149 E797.95059
G0 F9000 X99.124 Y127.149
G1 F3000 X128.424 Y97.850 E799.60802
G0 F9000 X127.858 Y97.850
G1 F3000 X99.105 Y126.603 E801.23454
G0 F9000 X99.105 Y126.037
G1 F3000 X127.292 Y97.850 E802.82903
G0 F9000 X126.726 Y97.850
G1 F3000 X99.105 Y125.471 E804.39151
G0 F9000 X99.105 Y124.906
G1 F3000 X126.161 Y97.850 E805.92203
G0 F9000 X125.595 Y97.850
G1 F3000 X99.105 Y124.340 E807.42053
G0 F9000 X99.105 Y123.774
G1 F3000 X125.029 Y97.850 E808.88702
G0 F9000 X124.464 Y97.850
G1 F3000 X99.105 Y123.209 E810.32154
G0 F9000 X99.105 Y122.643
G1 F3000 X123.898 Y97.850 E811.72404
G0 F9000 X123.332 Y97.850
G1 F3000 X99.105 Y122.077 E813.09453
G0 F9000 X99.105 Y121.512
G1 F3000 X122.767 Y97.850 E814.43305
G0 F9000 X122.201 Y97.850
G1 F3000 X99.105 Y120.946 E815.73956
G0 F9000 X99.105 Y120.380
G1 F3000 X121.635 Y97.850 E817.01405
G0 F9000 X121.070 Y97.850
G1 F3000 X99.105 Y119.815 E818.25658
G0 F9000 X99.105 Y119.249
G1 F3000 X120.504 Y97.850 E819.46709
G0 F9000 X119.938 Y97.850
G1 F3000 X99.105 Y118.683 E820.64558
G0 F9000 X99.105 Y118.117
G1 F3000 X119.373 Y97.850 E821.79208
G0 F9000 X118.807 Y97.850
G1 F3000 X99.105 Y117.552 E822.90660
G0 F9000 X99.105 Y116.986
G1 F3000 X118.241 Y97.850 E823.98909
G0 F9000 X117.676 Y97.850
G1 F3000 X99.105 Y116.420 E825.03960
G0 F9000 X99.105 Y115.855
G1 F3000 X117.110 Y97.850 E826.05811
G0 F9000 X116.544 Y97.850
G1 F3000 X99.105 Y115.289 E827.04461
G0 F9000 X99.105 Y114.723
G1 F3000 X115.978 Y97.850 E827.99909
G0 F9000 X115.413 Y97.850
G1 F3000 X99.105 Y114.158 E828.92161
G0 F9000 X99.105 Y113.592
G1 F3000 X114.847 Y97.850 E829.81212
G0 F9000 X114.281 Y97.850
G1 F3000 X99.105 Y113.026 E830.67060
G0 F9000 X99.105 Y112.461
G1 F3000 X113.716 Y97.850 E831.49712
G0 F9000 X113.150 Y97.850
G1 F3000 X99.105 Y111.895 E832.29163
G0 F9000 X99.105 Y111.329
G1 F3000 X112.584 Y97.850 E833.05412
G0 F9000 X112.019 Y97.850
G1 F3000 X99.105 Y110.764 E833.78464
G0 F9000 X99.105 Y110.198
G1 F3000 X111.453 Y97.850 E834.48315
G0 F9000 X110.887 Y97.850
G1 F3000 X99.105 Y109.632 E835.14964
G0 F9000 X99.105 Y109.066
G1 F3000 X110.322 Y97.850 E835.78414
G0 F9000 X109.756 Y97.850
G1 F3000 X99.105 Y108.501 E836.38665
G0 F9000 X99.105 Y107.935
G1 F3000 X109.190 Y97.850 E836.95715
G0 F9000 X108.625 Y97.850
G1 F3000 X99.105 Y107.369 E837.49565
G0 F9000 X99.105 Y106.804
G1 F3000 X108.059 Y97.850 E838.00217
G0 F9000 X107.493 Y97.850
G1 F3000 X99.105 Y106.238 E838.47666
G0 F9000 X99.105 Y105.672
G1 F3000 X106.927 Y97.850 E838.91914
G0 F9000 X106.362 Y97.850
G1 F3000 X99.105 Y105.107 E839.32966
G0 F9000 X99.105 Y104.541
G1 F3000 X105.796 Y97.850 E839.70816
G0 F9000 X105.230 Y97.850
G1 F3000 X99.105 Y103.975 E840.05464
G0 F9000 X99.105 Y103.410
G1 F3000 X104.665 Y97.850 E840.36916
G0 F9000 X104.099 Y97.850
G1 F3000 X99.105 Y102.844 E840.65167
G0 F9000 X99.105 Y102.278
G1 F3000 X103.533 Y97.850 E840.90215
G0 F9000 X102.968 Y97.850
G1 F3000 X99.105 Y101.713 E841.12068
G0 F9000 X99.105 Y101.147
G1 F3000 X102.402 Y97.850 E841.30718
G0 F9000 X101.836 Y97.850
G1 F3000 X99.105 Y100.581 E841.46167
G0 F9000 X99.105 Y100.016
G1 F3000 X101.271 Y97.850 E841.58420
G0 F9000 X100.705 Y97.850
G1 F3000 X99.105 Y99.450 E841.67471
G0 F9000 X99.105 Y98.884
G1 F3000 X100.139 Y97.850 E841.73320
G0 F9000 X99.574 Y97.850
G1 F3000 X99.105 Y98.318 E841.75970
;LAYER:6
G0 F9000 X98.965 Y97.710 Z0.899
;TYPE:WALL-INNER
G1 F3000 X131.035 Y97.710 E843.04250
G1 X131.035 Y127.290 E844.22570
G1 X98.965 Y127.290 E845.50850
G1 X98.965 Y97.710 E846.69170
G0 F9000 X98.565 Y97.310
;TYPE:WALL-OUTER
G1 F3000 X131.435 Y97.310 E848.00650
G1 X131.435 Y127.690 E849.22170
G1 X98.565 Y127.690 E850.53650
G1 X98.565 Y97.310 E851.75170
G0 F9000 X99.104 Y97.973
;TYPE:SKIN
G1 F3000 X128.280 Y127.149 E853.40215
G0 F9000 X127.714 Y127.149
G1 F3000 X99.104 Y98.538 E855.02060
G0 F9000 X99.104 Y99.104
G1 F3000 X127.149 Y127.149 E856.60707
G0 F9000 X126.583 Y127.149
G1 F3000 X99.104 Y99.670 E858.16151
G0 F9000 X99.104 Y100.235
G1 F3000 X126.017 Y127.149 E859.68397
G0 F9000 X125.452 Y127.149
G1 F3000 X99.104 Y100.801 E861.17444
G0 F9000 X99.104 Y101.367
G1 F3000 X124.886 Y127.149 E862.63289
G0 F9000 X124.320 Y127.149
G1 F3000 X99.104 Y101.932 E864.05935
G0 F9000 X99.104 Y102.498
G1 F3000 X123.755 Y127.149 E865.45382
G0 F9000 X123.189 Y127.149
G1 F3000 X99.104 Y103.064 E866.81627
G0 F9000 X99.104 Y103.630
G1 F3000 X122.623 Y127.149 E868.14671
G0 F9000 X122.057 Y127.149
G1 F3000 X99.104 Y104.195 E869.44516
G0 F9000 X99.104 Y104.761
G1 F3000 X121.492 Y127.149 E870.71161
G0 F9000 X120.926 Y127.149
G1 F3000 X99.104 Y105.327 E871.94605
G0 F9000 X99.104 Y105.892
G1 F3000 X120.360 Y127.149 E873.14850
G0 F9000 X119.795 Y127.149
G1 F3000 X99.104 Y106.458 E874.31896
G0 F9000 X99.104 Y107.024
G1 F3000 X119.229 Y127.149 E875.45740
G0 F9000 X118.663 Y127.149
G1 F3000 X99.104 Y107.589 E876.56385
G0 F9000 X99.104 Y108.155
G1 F3000 X118.098 Y127.149 E877.63832
G0 F9000 X117.532 Y127.149
G1 F3000 X99.104 Y108.721 E878.68076
G0 F9000 X99.104 Y109.286
G1 F3000 X116.966 Y127.149 E879.69122
G0 F9000 X116.401 Y127.149
G1 F3000 X99.104 Y109.852 E880.66968
G0 F9000 X99.104 Y110.418
G1 F3000 X115.835 Y127.149 E881.61613
G0 F9000 X115.269 Y127.149
G1 F3000 X99.104 Y110.983 E882.53059
G0 F9000 X99.104 Y111.549
G1 F3000 X114.704 Y127.149 E883.41306
G0 F9000 X114.138 Y127.149
G1 F3000 X99.104 Y112.115 E884.26351
G0 F9000 X99.104 Y112.681
G1 F3000 X113.572 Y127.149 E885.08195
G0 F9000 X113.006 Y127.149
G1 F3000 X99.104 Y113.246 E885.86839
G0 F9000 X99.104 Y113.812
G1 F3000 X112.441 Y127.149 E886.62284
G0 F9000 X111.875 Y127.149
G1 F3000 X99.104 Y114.378 E887.34528
G0 F9000 X99.104 Y114.943
G1 F3000 X111.309 Y127.149 E888.03573
G0 F9000 X110.744 Y127.149
G1 F3000 X99.104 Y115.509 E888.69419
G0 F9000 X99.104 Y116.075
G1 F3000 X110.178 Y127.149 E889.32063
G0 F9000 X109.612 Y127.149
G1 F3000 X99.104 Y116.640 E889.91508
G0 F9000 X99.104 Y117.206
G1 F3000 X109.047 Y127.149 E890.47754
G0 F9000 X108.481 Y127.149
G1 F3000 X99.104 Y117.772 E891.00798
G0 F9000 X99.104 Y118.337
G1 F3000 X107.915 Y127.149 E891.50643
G0 F9000 X107.350 Y127.149
G1 F3000 X99.104 Y118.903 E891.97290
G0 F9000 X99.104 Y119.469
G1 F3000 X106.784 Y127.149 E892.40735
G0 F9000 X106.218 Y127.149
G1 F3000 X99.104 Y120.034 E892.80980
G0 F9000 X99.104 Y120.600
G1 F3000 X105.653 Y127.149 E893.18027
G0 F9000 X105.087 Y127.149
G1 F3000 X99.104 Y121.166 E893.51872
G0 F9000 X99.104 Y121.731
G1 F3000 X104.521 Y127.149 E893.82518
G0 F9000 X103.956 Y127.149
G1 F3000 X99.104 Y122.297 E894.09965
G0 F9000 X99.104 Y122.863
G1 F3000 X103.390 Y127.149 E894.34210
G0 F9000 X102.824 Y127.149
G1 F3000 X99.104 Y123.429 E894.55254
G0 F9000 X99.104 Y123.994
G1 F3000 X102.258 Y127.149 E894.73098
G0 F9000 X101.693 Y127.149
G1 F3000 X99.104 Y124.560 E894.87744
G0 F9000 X99.104 Y125.126
G1 F3000 X101.127 Y127.149 E894.99188
G0 F9000 X100.561 Y127.149
G1 F3000 X99.104 Y125.691 E895.07433
G0 F9000 X99.104 Y126.257
G1 F3000 X99.996 Y127.149 E895.12478
G0 F9000 X99.430 Y127.149
G1 F3000 X99.104 Y126.823 E895.14323
G0 F9000 X99.547 Y97.850
G1 F3000 X128.846 Y127.149 E896.80063
G0 F9000 X129.411 Y127.149
G1 F3000 X100.112 Y97.850 E898.45803
G0 F9000 X100.678 Y97.850
G1 F3000 X129.977 Y127.149 E900.11543
G0 F9000 X130.543 Y127.149
G1 F3000 X101.244 Y97.850 E901.77283
G0 F9000 X101.809 Y97.850
G1 F3000 X130.894 Y126.934 E903.41810
G0 F9000 X130.894 Y126.369
G1 F3000 X102.375 Y97.850 E905.03138
G0 F9000 X102.941 Y97.850
G1 F3000 X130.894 Y125.803 E906.61264
G0 F9000 X130.894 Y125.237
G1 F3000 X103.506 Y97.850 E908.16191
G0 F9000 X104.072 Y97.850
G1 F3000 X130.894 Y124.672 E909.67919
G0 F9000 X130.894 Y124.106
G1 F3000 X104.638 Y97.850 E911.16446
G0 F9000 X105.204 Y97.850
G1 F3000 X130.894 Y123.540 E912.61770
G0 F9000 X130.894 Y122.975
G1 F3000 X105.769 Y97.850 E914.03899
G0 F9000 X106.335 Y97.850
G1 F3000 X130.894 Y122.409 E915.42825
G0 F9000 X130.894 Y121.843
G1 F3000 X106.901 Y97.850 E916.78550
G0 F9000 X107.466 Y97.850
G1 F3000 X130.894 Y121.278 E918.11079
G0 F9000 X130.894 Y120.712
G1 F3000 X108.032 Y97.850 E919.40406
G0 F9000 X108.598 Y97.850
G1 F3000 X130.894 Y120.146 E920.66531
G0 F9000 X130.894 Y119.580
G1 F3000 X109.163 Y97.850 E921.89457
G0 F9000 X109.729 Y97.850
G1 F3000 X130.894 Y119.015 E923.09185
G0 F9000 X130.894 Y118.449
G1 F3000 X110.295 Y97.850 E924.25710
G0 F9000 X110.860 Y97.850
G1 F3000 X130.894 Y117.883 E925.39037
G0 F9000 X130.894 Y117.318
G1 F3000 X111.426 Y97.850 E926.49165
G0 F9000 X111.992 Y97.850
G1 F3000 X130.894 Y116.752 E927.56090
G0 F9000 X130.894 Y116.186
G1 F3000 X112.557 Y97.850 E928.59817
G0 F9000 X113.123 Y97.850
G1 F3000 X130.894 Y115.621 E929.60345
G0 F9000 X130.894 Y115.055
G1 F3000 X113.689 Y97.850 E930.57671
G0 F9000 X114.255 Y97.850
G1 F3000 X130.894 Y114.489 E931.51796
G0 F9000 X130.894 Y113.924
G1 F3000 X114.820 Y97.850 E932.42724
G0 F9000 X115.386 Y97.850
G1 F3000 X130.894 Y113.358 E933.30451
G0 F9000 X130.894 Y112.792
G1 F3000 X115.952 Y97.850 E934.14975
G0 F9000 X116.517 Y97.850
G1 F3000 X130.894 Y112.227 E934.96304
G0 F9000 X130.894 Y111.661
G1 F3000 X117.083 Y97.850 E935.74431
G0 F9000 X117.649 Y97.850
G1 F3000 X130.894 Y111.095 E936.49356
G0 F9000 X130.894 Y110.529
G1 F3000 X118.214 Y97.850 E937.21082
G0 F9000 X118.780 Y97.850
G1 F3000 X130.894 Y109.964 E937.89609
G0 F9000 X130.894 Y109.398
G1 F3000 X119.346 Y97.850 E938.54934
G0 F9000 X119.911 Y97.850
G1 F3000 X130.894 Y108.832 E939.17061
G0 F9000 X130.894 Y108.267
G1 F3000 X120.477 Y97.850 E939.75988
G0 F9000 X121.043 Y97.850
G1 F3000 X130.894 Y107.701 E940.31714
G0 F9000 X130.894 Y107.135
G1 F3000 X121.608 Y97.850 E940.84241
G0 F9000 X122.174 Y97.850
G1 F3000 X130.894 Y106.570 E941.33568
G0 F9000 X130.894 Y106.004
G1 F3000 X122.740 Y97.850 E941.79694
G0 F9000 X123.305 Y97.850
G1 F3000 X130.894 Y105.438 E942.22621
G0 F9000 X130.894 Y104.873
G1 F3000 X123.871 Y97.850 E942.62350
G0 F9000 X124.437 Y97.850
G1 F3000 X130.894 Y104.307 E942.98876
G0 F9000 X130.894 Y103.741
G1 F3000 X125.003 Y97.850 E943.32200
G0 F9000 X125.568 Y97.850
G1 F3000 X130.894 Y103.176 E943.62329
G0 F9000 X130.894 Y102.610
G1 F3000 X126.134 Y97.850 E943.89255
G0 F9000 X126.700 Y97.850
G1 F3000 X130.894 Y102.044 E944.12980
G0 F9000 X130.894 Y101.479
G1 F3000 X127.265 Y97.850 E944.33509
G0 F9000 X127.831 Y97.850
G1 F3000 X130.894 Y100.913 E944.50836
G0 F9000 X130.894 Y100.347
G1 F3000 X128.397 Y97.850 E944.64961
G0 F9000 X128.962 Y97.850
G1 F3000 X130.894 Y99.781 E944.75887
G0 F9000 X130.894 Y99.216
G1 F3000 X129.528 Y97.850 E944.83615
G0 F9000 X130.094 Y97.850
G1 F3000 X130.894 Y98.650 E944.88140
G0 F9000 X130.894 Y98.084
G1 F3000 X130.659 Y97.850 E944.89467
;LAYER:7
G0 F9000 X131.035 Y97.710 Z0.999
;TYPE:WALL-INNER
G1 F3000 X131.035 Y127.290 E946.07787
G1 X98.965 Y127.290 E947.36067
G1 X98.965 Y97.710 E948.54387
G1 X131.035 Y97.710 E949.82667
G0 F9000 X131.435 Y97.310
;TYPE:WALL-OUTER
G1 F3000 X131.435 Y127.690 E951.04187
G1 X98.565 Y127.690 E952.35667
G1 X98.565 Y97.310 E953.57187
G1 X131.435 Y97.310 E954.88667
G0 F9000 X130.686 Y97.850
;TYPE:SKIN
G1 F3000 X101.387 Y127.149 E956.54407
G0 F9000 X101.952 Y127.149
G1 F3000 X130.894 Y98.207 E958.18127
G0 F9000 X130.894 Y98.773
G1 F3000 X102.518 Y127.149 E959.78646
G0 F9000 X103.084 Y127.149
G1 F3000 X130.894 Y99.339 E961.35963
G0 F9000 X130.894 Y99.904
G1 F3000 X103.649 Y127.149 E962.90084
G0 F9000 X104.215 Y127.149
G1 F3000 X130.894 Y100.470 E964.41004
G0 F9000 X130.894 Y101.036
G1 F3000 X104.781 Y127.149 E965.88721
G0 F9000 X105.346 Y127.149
G1 F3000 X130.894 Y101.602 E967.33240
G0 F9000 X130.894 Y102.167
G1 F3000 X105.912 Y127.149 E968.74559
G0 F9000 X106.478 Y127.149
G1 F3000 X130.894 Y102.733 E970.12677
G0 F9000 X130.894 Y103.299
G1 F3000 X107.043 Y127.149 E971.47596
G0 F9000 X107.609 Y127.149
G1 F3000 X130.894 Y103.864 E972.79315
G0 F9000 X130.894 Y104.430
G1 F3000 X108.175 Y127.149 E974.07834
G0 F9000 X108.741 Y127.149
G1 F3000 X130.894 Y104.996 E975.33150
G0 F9000 X130.894 Y105.561
G1 F3000 X109.306 Y127.149 E976.55270
G0 F9000 X109.872 Y127.149
G1 F3000 X130.894 Y106.127 E977.74188
G0 F9000 X130.894 Y106.693
G1 F3000 X110.438 Y127.149 E978.89905
G0 F9000 X111.003 Y127.149
G1 F3000 X130.894 Y107.258 E980.02425
G0 F9000 X130.894 Y107.824
G1 F3000 X111.569 Y127.149 E981.11744
G0 F9000 X112.135 Y127.149
G1 F3000 X130.894 Y108.390 E982.17861
G0 F9000 X130.894 Y108.955
G1 F3000 X112.700 Y127.149 E983.20782
G0 F9000 X113.266 Y127.149
G1 F3000 X130.894 Y109.521 E984.20501
G0 F9000 X130.894 Y110.087
G1 F3000 X113.832 Y127.149 E985.17018
G0 F9000 X114.397 Y127.149
G1 F3000 X130.894 Y110.653 E986.10337
G0 F9000 X130.894 Y111.218
G1 F3000 X114.963 Y127.149 E987.00456
G0 F9000 X115.529 Y127.149
G1 F3000 X130.894 Y111.784 E987.87373
G0 F9000 X130.894 Y112.350
G1 F3000 X116.094 Y127.149 E988.71092
G0 F9000 X116.660 Y127.149
G1 F3000 X130.894 Y112.915 E989.51612
G0 F9000 X130.894 Y113.481
G1 F3000 X117.226 Y127.149 E990.28930
G0 F9000 X117.791 Y127.149
G1 F3000 X130.894 Y114.047 E991.03049
G0 F9000 X130.894 Y114.612
G1 F3000 X118.357 Y127.149 E991.73968
G0 F9000 X118.923 Y127.149
G1 F3000 X130.894 Y115.178 E992.41687
G0 F9000 X130.894 Y115.744
G1 F3000 X119.489 Y127.149 E993.06203
G0 F9000 X120.054 Y127.149
G1 F3000 X130.894 Y116.309 E993.67523
G0 F9000 X130.894 Y116.875
G1 F3000 X120.620 Y127.149 E994.25642
G0 F9000 X121.186 Y127.149
G1 F3000 X130.894 Y117.441 E994.80559
G0 F9000 X130.894 Y118.006
G1 F3000 X121.751 Y127.149 E995.32279
G0 F9000 X122.317 Y127.149
G1 F3000 X130.894 Y118.572 E995.80798
G0 F9000 X130.894 Y119.138
G1 F3000 X122.883 Y127.149 E996.26115
G0 F9000 X123.448 Y127.149
G1 F3000 X130.894 Y119.703 E996.68236
G0 F9000 X130.894 Y120.269
G1 F3000 X124.014 Y127.149 E997.07155
G0 F9000 X124.580 Y127.149
G1 F3000 X130.894 Y120.835 E997.42873
G0 F9000 X130.894 Y121.401
G1 F3000 X125.145 Y127.149 E997.75391
G0 F9000 X125.711 Y127.149
G1 F3000 X130.894 Y121.966 E998.04711
G0 F9000 X130.894 Y122.532
G1 F3000 X126.277 Y127.149 E998.30828
G0 F9000 X126.842 Y127.149
G1 F3000 X130.894 Y123.098 E998.53747
G0 F9000 X130.894 Y123.663
G1 F3000 X127.408 Y127.149 E998.73467
G0 F9000 X127.974 Y127.149
G1 F3000 X130.894 Y124.229 E998.89985
G0 F9000 X130.894 Y124.795
G1 F3000 X128.539 Y127.149 E999.03304
G0 F9000 X129.105 Y127.149
G1 F3000 X130.894 Y125.360 E999.13424
G0 F9000 X130.894 Y125.926
G1 F3000 X129.671 Y127.149 E999.20342
G0 F9000 X130.237 Y127.149
G1 F3000 X130.894 Y126.492 E999.24059
G0 F9000 X130.894 Y127.057
G1 F3000 X130.802 Y127.149 E999.24579
G0 F9000 X130.121 Y97.850
G1 F3000 X100.821 Y127.149 E1000.90322
G0 F9000 X100.255 Y127.149
G1 F3000 X129.555 Y97.850 E1002.56065
G0 F9000 X128.989 Y97.850
G1 F3000 X99.690 Y127.149 E1004.21805
G0 F9000 X99.124 Y127.149
G1 F3000 X128.424 Y97.850 E1005.87548
G0 F9000 X127.858 Y97.850
G1 F3000 X99.105 Y126.603 E1007.50200
G0 F9000 X99.105 Y126.037
G1 F3000 X127.292 Y97.850 E1009.09650
G0 F9000 X126.726 Y97.850
G1 F3000 X99.105 Y125.471 E1010.65898
G0 F9000 X99.105 Y124.906
G1 F3000 X126.161 Y97.850 E1012.18950
G0 F9000 X125.595 Y97.850
G1 F3000 X99.105 Y124.340 E1013.68800
G0 F9000 X99.105 Y123.774
G1 F3000 X125.029 Y97.850 E1015.15448
G0 F9000 X124.464 Y97.850
G1 F3000 X99.105 Y123.209 E1016.58900
G0 F9000 X99.105 Y122.643
G1 F3000 X123.898 Y97.850 E1017.99151
G0 F9000 X123.332 Y97.850
G1 F3000 X99.105 Y122.077 E1019.36199
G0 F9000 X99.105 Y121.512
G1 F3000 X122.767 Y97.850 E1020.70052
G0 F9000 X122.201 Y97.850
G1 F3000 X99.105 Y120.946 E1022.00702
G0 F9000 X99.105 Y120.380
G1 F3000 X121.635 Y97.850 E1023.28151
G0 F9000 X121.070 Y97.850
G1 F3000 X99.105 Y119.815 E1024.52404
G0 F9000 X99.105 Y119.249
G1 F3000 X120.504 Y97.850 E1025.73455
G0 F9000 X119.938 Y97.850
G1 F3000 X99.105 Y118.683 E1026.91304
G0 F9000 X99.105 Y118.117
G1 F3000 X119.373 Y97.850 E1028.05955
G0 F9000 X118.807 Y97.850
G1 F3000 X99.105 Y117.552 E1029.17406
G0 F9000 X99.105 Y116.986
G1 F3000 X118.241 Y97.850 E1030.25656
G0 F9000 X117.676 Y97.850
G1 F3000 X99.105 Y116.420 E1031.30706
G0 F9000 X99.105 Y115.855
G1 F3000 X117.110 Y97.850 E1032.32558
G0 F9000 X116.544 Y97.850
G1 F3000 X99.105 Y115.289 E1033.31208
G0 F9000 X99.105 Y114.723
G1 F3000 X115.978 Y97.850 E1034.26656
G0 F9000 X115.413 Y97.850
G1 F3000 X99.105 Y114.158 E1035.18908
G0 F9000 X99.105 Y113.592
G1 F3000 X114.847 Y97.850 E1036.07958
G0 F9000 X114.281 Y97.850
G1 F3000 X99.105 Y113.026 E1036.93806
G0 F9000 X99.105 Y112.461
G1 F3000 X113.716 Y97.850 E1037.76459
G0 F9000 X113.150 Y97.850
G1 F3000 X99.105 Y111.895 E1038.55909
G0 F9000 X99.105 Y111.329
G1 F3000 X112.584 Y97.850 E1039.32158
G0 F9000 X112.019 Y97.850
G1 F3000 X99.105 Y110.764 E1040.05211
G0 F9000 X99.105 Y110.198
G1 F3000 X111.453 Y97.850 E1040.75061
G0 F9000 X110.887 Y97.850
G1 F3000 X99.105 Y109.632 E1041.41710
G0 F9000 X99.105 Y109.066
G1 F3000 X110.322 Y97.850 E1042.05161
G0 F9000 X109.756 Y97.850
G1 F3000 X99.105 Y108.501 E1042.65412
G0 F9000 X99.105 Y107.935
G1 F3000 X109.190 Y97.850 E1043.22461
G0 F9000 X108.625 Y97.850
G1 F3000 X99.105 Y107.369 E1043.76311
G0 F9000 X99.105 Y106.804
G1 F3000 X108.059 Y97.850 E1044.26963
G0 F9000 X107.493 Y97.850
G1 F3000 X99.105 Y106.238 E1044.74413
G0 F9000 X99.105 Y105.672
G1 F3000 X106.927 Y97.850 E1045.18661
G0 F9000 X106.362 Y97.850
G1 F3000 X99.105 Y105.107 E1045.59712
G0 F9000 X99.105 Y104.541
G1 F3000 X105.796 Y97.850 E1045.97562
G0 F9000 X105.230 Y97.850
G1 F3000 X99.105 Y103.975 E1046.32211
G0 F9000 X99.105 Y103.410
G1 F3000 X104.665 Y97.850 E1046.63663
G0 F9000 X104.099 Y97.850
G1 F3000 X99.105 Y102.844 E1046.91913
G0 F9000 X99.105 Y102.278
G1 F3000 X103.533 Y97.850 E1047.16962
G0 F9000 X102.968 Y97.850
G1 F3000 X99.105 Y101.713 E1047.38814
G0 F9000 X99.105 Y101.147
G1 F3000 X102.402 Y97.850 E1047.57465
G0 F9000 X101.836 Y97.850
G1 F3000 X99.105 Y100.581 E1047.72914
G0 F9000 X99.105 Y100.016
G1 F3000 X101.271 Y97.850 E1047.85166
G0 F9000 X100.705 Y97.850
G1 F3000 X99.105 Y99.450 E1047.94217
G0 F9000 X99.105 Y98.884
G1 F3000 X100.139 Y97.850 E1048.00066
G0 F9000 X99.574 Y97.850
G1 F3000 X99.105 Y98.318 E1048.02717
;LAYER:8
G0 F9000 X99.104 Y99.104 Z1.099
;TYPE:FILL
G1 F3000 X127.149 Y127.149 E1049.61363
G0 F9000 X121.751 Y127.149
G1 F3000 X130.894 Y118.006 E1050.13084
G0 F9000 X130.894 Y119.580
G1 F3000 X109.163 Y97.850 E1051.36010
G0 F9000 X105.796 Y97.850
G1 F3000 X99.105 Y104.541 E1051.73860
G0 F9000 X99.104 Y110.418
G1 F3000 X115.835 Y127.149 E1052.68505
G0 F9000 X110.438 Y127.149
G1 F3000 X130.894 Y106.693 E1053.84221
G0 F9000 X130.894 Y108.267
G1 F3000 X120.477 Y97.850 E1054.43149
G0 F9000 X117.110 Y97.850
G1 F3000 X99.105 Y115.855 E1055.45001
G0 F9000 X99.104 Y121.731
G1 F3000 X104.521 Y127.149 E1055.75647
G0 F9000 X99.124 Y127.149
G1 F3000 X128.424 Y97.850 E1057.41390
G0 F9000 X131.035 Y97.710
;TYPE:WALL-INNER
G1 F3000 X131.035 Y127.290 E1058.59710
G1 X98.965 Y127.290 E1059.87990
G1 X98.965 Y97.710 E1061.06310
G1 X131.035 Y97.710 E1062.34590
G0 F9000 X131.435 Y97.310
;TYPE:WALL-OUTER
G1 F3000 X131.435 Y127.690 E1063.56110
G1 X98.565 Y127.690 E1064.87590
G1 X98.565 Y97.310 E1066.09110
G1 X131.435 Y97.310 E1067.40590
G0 F9000 X130.635 Y98.110
;LAYER:9
G0 X128.424 Y97.850 Z1.199
;TYPE:FILL
G1 F3000 X99.124 Y127.149 E1069.06333
G0 F9000 X104.521 Y127.149
G1 F3000 X99.104 Y121.731 E1069.36979
G0 F9000 X99.105 Y115.855
G1 F3000 X117.110 Y97.850 E1070.38830
G0 F9000 X120.477 Y97.850
G1 F3000 X130.894 Y108.267 E1070.97758
G0 F9000 X130.894 Y106.693
G1 F3000 X110.438 Y127.149 E1072.13474
G0 F9000 X115.835 Y127.149
G1 F3000 X99.104 Y110.418 E1073.08119
G0 F9000 X99.105 Y104.541
G1 F3000 X105.796 Y97.850 E1073.45969
G0 F9000 X109.163 Y97.850
G1 F3000 X130.894 Y119.580 E1074.68895
G0 F9000 X130.894 Y118.006
G1 F3000 X121.751 Y127.149 E1075.20616
G0 F9000 X127.149 Y127.149
G1 F3000 X99.104 Y99.104 E1076.79263
G0 F9000 X98.965 Y97.710
;TYPE:WALL-INNER
G1 F3000 X131.035 Y97.710 E1078.07543
G1 X131.035 Y127.290 E1079.25863
G1 X98.965 Y127.290 E1080.54143
G1 X98.965 Y97.710 E1081.72463
G0 F9000 X98.565 Y97.310
;TYPE:WALL-OUTER
G1 F3000 X131.435 Y97.310 E1083.03943
G1 X131.435 Y127.690 E1084.25463
G1 X98.565 Y127.690 E1085.56943
G1 X98.565 Y97.310 E1086.78463
G0 F9000 X99.365 Y98.110
;LAYER:10
G0 X99.104 Y99.104 Z1.299
;TYPE:FILL
G1 F3000 X127.149 Y127.149 E1088.37109
G0 F9000 X121.751 Y127.149
G1 F3000 X130.894 Y118.006 E1088.88830
G0 F9000 X130.894 Y119.580
G1 F3000 X109.163 Y97.850 E1090.11756
G0 F9000 X105.796 Y97.850
G1 F3000 X99.105 Y104.541 E1090.49606
G0 F9000 X99.104 Y110.418
G1 F3000 X115.835 Y127.149 E1091.44251
G0 F9000 X110.438 Y127.149
G1 F3000 X130.894 Y106.693 E1092.59967
G0 F9000 X130.894 Y108.267
G1 F3000 X120.477 Y97.850 E1093.18895
G0 F9000 X117.110 Y97.850
G1 F3000 X99.105 Y115.855 E1094.20746
G0 F9000 X99.104 Y121.731
G1 F3000 X104.521 Y127.149 E1094.51392
G0 F9000 X99.124 Y127.149
G1 F3000 X128.424 Y97.850 E1096.17135
G0 F9000 X131.035 Y97.710
;TYPE:WALL-INNER
G1 F3000 X131.035 Y127.290 E1097.35455
G1 X98.965 Y127.290 E1098.63735
G1 X98.965 Y97.710 E1099.82055
G1 X131.035 Y97.710 E1101.10335
G0 F9000 X131.435 Y97.310
;TYPE:WALL-OUTER
G1 F3000 X131.435 Y127.690 E1102.31855
G1 X98.565 Y127.690 E1103.63335
G1 X98.565 Y97.310 E1104.84855
G1 X131.435 Y97.310 E1106.16335
G0 F9000 X130.635 Y98.110
;LAYER:11
G0 X128.424 Y97.850 Z1.399
;TYPE:FILL
G1 F3000 X99.124 Y127.149 E1107.82078
G0 F9000 X104.521 Y127.149
G1 F3000 X99.104 Y121.731 E1108.12724
G0 F9000 X99.105 Y115.855
G1 F3000 X117.110 Y97.850 E1109.14576
G0 F9000 X120.477 Y97.850
G1 F3000 X130.894 Y108.267 E1109.73504
G0 F9000 X130.894 Y106.693
G1 F3000 X110.438 Y127.149 E1110.89220
G0 F9000 X115.835 Y127.149
G1 F3000 X99.104 Y110.418 E1111.83865
G0 F9000 X99.105 Y104.541
G1 F3000 X105.796 Y97.850 E1112.21715
G0 F9000 X109.163 Y97.850
G1 F3000 X130.894 Y119.580 E1113.44641
G0 F9000 X130.894 Y118.006
G1 F3000 X121.751 Y127.149 E1113.96362
G0 F9000 X127.149 Y127.149
G1 F3000 X99.104 Y99.104 E1115.55008
G0 F9000 X98.965 Y97.710
;TYPE:WALL-INNER
G1 F3000 X131.035 Y97.710 E1116.83288
G1 X131.035 Y127.290 E1118.01608
G1 X98.965 Y127.290 E1119.29888
G1 X98.965 Y97.710 E1120.48208
G0 F9000 X98.565 Y97.310
;TYPE:WALL-OUTER
G1 F3000 X131.435 Y97.310 E1121.79688
G1 X131.435 Y127.690 E1123.01208
G1 X98.565 Y127.690 E1124.32688
G1 X98.565 Y97.310 E1125.54208
G0 F9000 X99.365 Y98.110
;LAYER:12
G0 X99.104 Y99.104 Z1.499
;TYPE:FILL
G1 F3000 X127.149 Y127.149 E1127.12855
G0 F9000 X121.751 Y127.149
G1 F3000 X130.894 Y118.006 E1127.64576
G0 F9000 X130.894 Y119.580
G1 F3000 X109.163 Y97.850 E1128.87502
G0 F9000 X105.796 Y97.850
G1 F3000 X99.105 Y104.541 E1129.25352
G0 F9000 X99.104 Y110.418
G1 F3000 X115.835 Y127.149 E1130.19997
G0 F9000 X110.438 Y127.149
G1 F3000 X130.894 Y106.693 E1131.35713
G0 F9000 X130.894 Y108.267
G1 F3000 X120.477 Y97.850 E1131.94641
G0 F9000 X117.110 Y97.850
G1 F3000 X99.105 Y115.855 E1132.96492
G0 F9000 X99.104 Y121.731
G1 F3000 X104.521 Y127.149 E1133.27138
G0 F9000 X99.124 Y127.149
G1 F3000 X128.424 Y97.850 E1134.92881
G0 F9000 X131.035 Y97.710
;TYPE:WALL-INNER
G1 F3000 X131.035 Y127.290 E1136.11201
G1 X98.965 Y127.290 E1137.39481
G1 X98.965 Y97.710 E1138.57801
G1 X131.035 Y97.710 E1139.86081
G0 F9000 X131.435 Y97.310
;TYPE:WALL-OUTER
G1 F3000 X131.435 Y127.690 E1141.07601
G1 X98.565 Y127.690 E1142.39081
G1 X98.565 Y97.310 E1143.60601
G1 X131.435 Y97.310 E1144.92081
G0 F9000 X130.635 Y98.110
;LAYER:13
G0 X128.424 Y97.850 Z1.599
;TYPE:FILL
G1 F3000 X99.124 Y127.149 E1146.57824
G0 F9000 X104.521 Y127.149
G1 F3000 X99.104 Y121.731 E1146.88470
G0 F9000 X99.105 Y115.855
G1 F3000 X117.110 Y97.850 E1147.90322
G0 F9000 X120.477 Y97.850
G1 F3000 X130.894 Y108.267 E1148.49249
G0 F9000 X130.894 Y106.693
G1 F3000 X110.438 Y127.149 E1149.64966
G0 F9000 X115.835 Y127.149
G1 F3000 X99.104 Y110.418 E1150.59611
G0 F9000 X99.105 Y104.541
G1 F3000 X105.796 Y97.850 E1150.97461
G0 F9000 X109.163 Y97.850
G1 F3000 X130.894 Y119.580 E1152.20387
G0 F9000 X130.894 Y118.006
G1 F3000 X121.751 Y127.149 E1152.72108
G0 F9000 X127.149 Y127.149
G1 F3000 X99.104 Y99.104 E1154.30754
G0 F9000 X98.965 Y97.710
;TYPE:WALL-INNER
G1 F3000 X131.035 Y97.710 E1155.59034
G1 X131.035 Y127.290 E1156.77354
G1 X98.965 Y127.290 E1158.05634
G1 X98.965 Y97.710 E1159.23954
G0 F9000 X98.565 Y97.310
;TYPE:WALL-OUTER
G1 F3000 X131.435 Y97.310 E1160.55434
G1 X131.435 Y127.690 E1161.76954
G1 X98.565 Y127.690 E1163.08434
G1 X98.565 Y97.310 E1164.29954
G0 F9000 X99.365 Y98.110
;LAYER:14
G0 X99.104 Y99.104 Z1.699
;TYPE:FILL
G1 F3000 X127.149 Y127.149 E1165.88601
G0 F9000 X121.751 Y127.149
G1 F3000 X130.894 Y118.006 E1166.40321
G0 F9000 X130.894 Y119.580
G1 F3000 X109.163 Y97.850 E1167.63248
G0 F9000 X105.796 Y97.850
G1 F3000 X99.105 Y104.541 E1168.01098
G0 F9000 X99.104 Y110.418
G1 F3000 X115.835 Y127.149 E1168.95743
G0 F9000 X110.438 Y127.149
G1 F3000 X130.894 Y106.693 E1170.11459
G0 F9000 X130.894 Y108.267
G1 F3000 X120.477 Y97.850 E1170.70387
G0 F9000 X117.110 Y97.850
G1 F3000 X99.105 Y115.855 E1171.72238
G0 F9000 X99.104 Y121.731
G1 F3000 X104.521 Y127.149 E1172.02884
G0 F9000 X99.124 Y127.149
G1 F3000 X128.424 Y97.850 E1173.68627
G0 F9000 X131.035 Y97.710
;TYPE:WALL-INNER
G1 F3000 X131.035 Y127.290 E1174.86947
G1 X98.965 Y127.290 E1176.15227
G1 X98.965 Y97.710 E1177.33547
G1 X131.035 Y97.710 E1178.61827
G0 F9000 X131.435 Y97.310
;TYPE:WALL-OUTER
G1 F3000 X131.435 Y127.690 E1179.83347
G1 X98.565 Y127.690 E1181.14827
G1 X98.565 Y97.310 E1182.36347
G1 X131.435 Y97.310 E1183.67827
G0 F9000 X130.635 Y98.110
;LAYER:15
G0 X128.424 Y97.850 Z1.799
;TYPE:FILL
G1 F3000 X99.124 Y127.149 E1185.33570
G0 F9000 X104.521 Y127.149
G1 F3000 X99.104 Y121.731 E1185.64216
G0 F9000 X99.105 Y115.855
G1 F3000 X117.110 Y97.850 E1186.66068
G0 F9000 X120.477 Y97.850
G1 F3000 X130.894 Y108.267 E1187.24995
G0 F9000 X130.894 Y106.693
G1 F3000 X110.438 Y127.149 E1188.40712
G0 F9000 X115.835 Y127.149
G1 F3000 X99.104 Y110.418 E1189.35357
G0 F9000 X99.105 Y104.541
G1 F3000 X105.796 Y97.850 E1189.73207
G0 F9000 X109.163 Y97.850
G1 F3000 X130.894 Y119.580 E1190.96133
G0 F9000 X130.894 Y118.006
G1 F3000 X121.751 Y127.149 E1191.47854
G0 F9000 X127.149 Y127.149
G1 F3000 X99.104 Y99.104 E1193.06500
G0 F9000 X98.965 Y97.710
;TYPE:WALL-INNER
G1 F3000 X131.035 Y97.710 E1194.34780
G1 X131.035 Y127.290 E1195.53100
G1 X98.965 Y127.290 E1196.81380
G1 X98.965 Y97.710 E1197.99700
G0 F9000 X98.565 Y97.310
;TYPE:WALL-OUTER
G1 F3000 X131.435 Y97.310 E1199.31180
G1 X131.435 Y127.690 E1200.52700
G1 X98.565 Y127.690 E1201.84180
G1 X98.565 Y97.310 E1203.05700
G0 F9000 X99.365 Y98.110
;LAYER:16
G0 X99.104 Y99.104 Z1.899
;TYPE:FILL
G1 F3000 X127.149 Y127.149 E1204.64347
G0 F9000 X121.751 Y127.149
G1 F3000 X130.894 Y118.006 E1205.16067
G0 F9000 X130.894 Y119.580
G1 F3000 X109.163 Y97.850 E1206.38994
G0 F9000 X105.796 Y97.850
G1 F3000 X99.105 Y104.541 E1206.76844
G0 F9000 X99.104 Y110.418
G1 F3000 X115.835 Y127.149 E1207.71488
G0 F9000 X110.438 Y127.149
G1 F3000 X130.894 Y106.693 E1208.87205
G0 F9000 X130.894 Y108.267
G1 F3000 X120.477 Y97.850 E1209.46132
G0 F9000 X117.110 Y97.850
G1 F3000 X99.105 Y115.855 E1210.47984
G0 F9000 X99.104 Y121.731
G1 F3000 X104.521 Y127.149 E1210.78630
G0 F9000 X99.124 Y127.149
G1 F3000 X128.424 Y97.850 E1212.44373
G0 F9000 X131.035 Y97.710
;TYPE:WALL-INNER
G1 F3000 X131.035 Y127.290 E1213.62693
G1 X98.965 Y127.290 E1214.90973
G1 X98.965 Y97.710 E1216.09293
G1 X131.035 Y97.710 E1217.37573
G0 F9000 X131.435 Y97.310
;TYPE:WALL-OUTER
G1 F3000 X131.435 Y127.690 E1218.59093
G1 X98.565 Y127.690 E1219.90573
G1 X98.565 Y97.310 E1221.12093
G1 X131.435 Y97.310 E1222.43573
G0 F9000 X130.635 Y98.110
;LAYER:17
G0 X128.424 Y97.850 Z1.999
;TYPE:FILL
G1 F3000 X99.124 Y127.149 E1224.09316
G0 F9000 X104.521 Y127.149
G1 F3000 X99.104 Y121.731 E1224.39962
G0 F9000 X99.105 Y115.855
G1 F3000 X117.110 Y97.850 E1225.41814
G0 F9000 X120.477 Y97.850
G1 F3000 X130.894 Y108.267 E1226.00741
G0 F9000 X130.894 Y106.693
G1 F3000 X110.438 Y127.149 E1227.16458
G0 F9000 X115.835 Y127.149
G1 F3000 X99.104 Y110.418 E1228.11103
G0 F9000 X99.105 Y104.541
G1 F3000 X105.796 Y97.850 E1228.48953
G0 F9000 X109.163 Y97.850
G1 F3000 X130.894 Y119.580 E1229.71879
G0 F9000 X130.894 Y118.006
G1 F3000 X121.751 Y127.149 E1230.23600
G0 F9000 X127.149 Y127.149
G1 F3000 X99.104 Y99.104 E1231.82246
G0 F9000 X98.965 Y97.710
;TYPE:WALL-INNER
G1 F3000 X131.035 Y97.710 E1233.10526
G1 X131.035 Y127.290 E1234.28846
G1 X98.965 Y127.290 E1235.57126
G1 X98.965 Y97.710 E1236.75446
G0 F9000 X98.565 Y97.310
;TYPE:WALL-OUTER
G1 F3000 X131.435 Y97.310 E1238.06926
G1 X131.435 Y127.690 E1239.28446
G1 X98.565 Y127.690 E1240.59926
G1 X98.565 Y97.310 E1241.81446
G0 F9000 X99.365 Y98.110
;LAYER:18
G0 X99.104 Y99.104 Z2.099
;TYPE:FILL
G1 F3000 X127.149 Y127.149 E1243.40093
G0 F9000 X121.751 Y127.149
G1 F3000 X130.894 Y118.006 E1243.91813
G0 F9000 X130.894 Y119.580
G1 F3000 X109.163 Y97.850 E1245.14739
G0 F9000 X105.796 Y97.850
G1 F3000 X99.105 Y104.541 E1245.52589
G0 F9000 X99.104 Y110.418
G1 F3000 X115.835 Y127.149 E1246.47234
G0 F9000 X110.438 Y127.149
G1 F3000 X130.894 Y106.693 E1247.62951
G0 F9000 X130.894 Y108.267
G1 F3000 X120.477 Y97.850 E1248.21878
G0 F9000 X117.110 Y97.850
G1 F3000 X99.105 Y115.855 E1249.23730
G0 F9000 X99.104 Y121.731
G1 F3000 X104.521 Y127.149 E1249.54376
G0 F9000 X99.124 Y127.149
G1 F3000 X128.424 Y97.850 E1251.20119
G0 F9000 X131.035 Y97.710
;TYPE:WALL-INNER
G1 F3000 X131.035 Y127.290 E1252.38439
G1 X98.965 Y127.290 E1253.66719
G1 X98.965 Y97.710 E1254.85039
G1 X131.035 Y97.710 E1256.13319
G0 F9000 X131.435 Y97.310
;TYPE:WALL-OUTER
G1 F3000 X131.435 Y127.690 E1257.34839
G1 X98.565 Y127.690 E1258.66319
G1 X98.565 Y97.310 E1259.87839
G1 X131.435 Y97.310 E1261.19319
G0 F9000 X130.635 Y98.110
;LAYER:19
G0 X128.424 Y97.850 Z2.199
;TYPE:FILL
G1 F3000 X99.124 Y127.149 E1262.85062
G0 F9000 X104.521 Y127.149
G1 F3000 X99.104 Y121.731 E1263.15708
G0 F9000 X99.105 Y115.855
G1 F3000 X117.110 Y97.850 E1264.17560
G0 F9000 X120.477 Y97.850
G1 F3000 X130.894 Y108.267 E1264.76487
G0 F9000 X130.894 Y106.693
G1 F3000 X110.438 Y127.149 E1265.92204
G0 F9000 X115.835 Y127.149
G1 F3000 X99.104 Y110.418 E1266.86849
G0 F9000 X99.105 Y104.541
G1 F3000 X105.796 Y97.850 E1267.24699
G0 F9000 X109.163 Y97.850
G1 F3000 X130.894 Y119.580 E1268.47625
G0 F9000 X130.894 Y118.006
G1 F3000 X121.751 Y127.149 E1268.99345
G0 F9000 X127.149 Y127.149
G1 F3000 X99.104 Y99.104 E1270.57992
G0 F9000 X98.965 Y97.710
;TYPE:WALL-INNER
G1 F3000 X131.035 Y97.710 E1271.86272
G1 X131.035 Y127.290 E1273.04592
G1 X98.965 Y127.290 E1274.32872
G1 X98.965 Y97.710 E1275.51192
G0 F9000 X98.565 Y97.310
;TYPE:WALL-OUTER
G1 F3000 X131.435 Y97.310 E1276.82672
G1 X131.435 Y127.690 E1278.04192
G1 X98.565 Y127.690 E1279.35672
G1 X98.565 Y97.310 E1280.57192
G0 F9000 X99.365 Y98.110
;LAYER:20
G0 X99.104 Y99.104 Z2.299
;TYPE:FILL
G1 F3000 X127.149 Y127.149 E1282.15838
G0 F9000 X121.751 Y127.149
G1 F3000 X130.894 Y118.006 E1282.67559
G0 F9000 X130.894 Y119.580
G1 F3000 X109.163 Y97.850 E1283.90485
G0 F9000 X105.796 Y97.850
G1 F3000 X99.105 Y104.541 E1284.28335
G0 F9000 X99.104 Y110.418
G1 F3000 X115.835 Y127.149 E1285.22980
G0 F9000 X110.438 Y127.149
G1 F3000 X130.894 Y106.693 E1286.38697
G0 F9000 X130.894 Y108.267
G1 F3000 X120.477 Y97.850 E1286.97624
G0 F9000 X117.110 Y97.850
G1 F3000 X99.105 Y115.855 E1287.99476
G0 F9000 X99.104 Y121.731
G1 F3000 X104.521 Y127.149 E1288.30122
G0 F9000 X99.124 Y127.149
G1 F3000 X128.424 Y97.850 E1289.95865
G0 F9000 X131.035 Y97.710
;TYPE:WALL-INNER
G1 F3000 X131.035 Y127.290 E1291.14185
G1 X98.965 Y127.290 E1292.42465
G1 X98.965 Y97.710 E1293.60785
G1 X131.035 Y97.710 E1294.89065
G0 F9000 X131.435 Y97.310
;TYPE:WALL-OUTER
G1 F3000 X131.435 Y127.690 E1296.10585
G1 X98.565 Y127.690 E1297.42065
G1 X98.565 Y97.310 E1298.63585
G1 X131.435 Y97.310 E1299.95065
G0 F9000 X130.635 Y98.110
;LAYER:21
G0 X128.424 Y97.850 Z2.399
;TYPE:FILL
G1 F3000 X99.124 Y127.149 E1301.60808
G0 F9000 X104.521 Y127.149
G1 F3000 X99.104 Y121.731 E1301.91454
G0 F9000 X99.105 Y115.855
G1 F3000 X117.110 Y97.850 E1302.93306
G0 F9000 X120.477 Y97.850
G1 F3000 X130.894 Y108.267 E1303.52233
G0 F9000 X130.894 Y106.693
G1 F3000 X110.438 Y127.149 E1304.67950
G0 F9000 X115.835 Y127.149
G1 F3000 X99.104 Y110.418 E1305.62594
G0 F9000 X99.105 Y104.541
G1 F3000 X105.796 Y97.850 E1306.00444
G0 F9000 X109.163 Y97.850
G1 F3000 X130.894 Y119.580 E1307.23371
G0 F9000 X130.894 Y118.006
G1 F3000 X121.751 Y127.149 E1307.75091
G0 F9000 X127.149 Y127.149
G1 F3000 X99.104 Y99.104 E1309.33738
G0 F9000 X98.965 Y97.710
;TYPE:WALL-INNER
G1 F3000 X131.035 Y97.710 E1310.62018
G1 X131.035 Y127.290 E1311.80338
G1 X98.965 Y127.290 E1313.08618
G1 X98.965 Y97.710 E1314.26938
G0 F9000 X98.565 Y97.310
;TYPE:WALL-OUTER
G1 F3000 X131.435 Y97.310 E1315.58418
G1 X131.435 Y127.690 E1316.79938
G1 X98.565 Y127.690 E1318.11418
G1 X98.565 Y97.310 E1319.32938
G0 F9000 X99.365 Y98.110
;LAYER:22
G0 X99.104 Y99.104 Z2.499
;TYPE:FILL
G1 F3000 X127.149 Y127.149 E1320.91584
G0 F9000 X121.751 Y127.149
G1 F3000 X130.894 Y118.006 E1321.43305
G0 F9000 X130.894 Y119.580
G1 F3000 X109.163 Y97.850 E1322.66231
G0 F9000 X105.796 Y97.850
G1 F3000 X99.105 Y104.541 E1323.04081
G0 F9000 X99.104 Y110.418
G1 F3000 X115.835 Y127.149 E1323.98726
G0 F9000 X110.438 Y127.149
G1 F3000 X130.894 Y106.693 E1325.14443
G0 F9000 X130.894 Y108.267
G1 F3000 X120.477 Y97.850 E1325.73370
G0 F9000 X117.110 Y97.850
G1 F3000 X99.105 Y115.855 E1326.75222
G0 F9000 X99.104 Y121.731
G1 F3000 X104.521 Y127.149 E1327.05868
G0 F9000 X99.124 Y127.149
G1 F3000 X128.424 Y97.850 E1328.71611
G0 F9000 X131.035 Y97.710
;TYPE:WALL-INNER
G1 F3000 X131.035 Y127.290 E1329.89931
G1 X98.965 Y127.290 E1331.18211
G1 X98.965 Y97.710 E1332.36531
G1 X131.035 Y97.710 E1333.64811
G0 F9000 X131.435 Y97.310
;TYPE:WALL-OUTER
G1 F3000 X131.435 Y127.690 E1334.86331
G1 X98.565 Y127.690 E1336.17811
G1 X98.565 Y97.310 E1337.39331
G1 X131.435 Y97.310 E1338.70811
G0 F9000 X130.635 Y98.110
;LAYER:23
G0 X128.424 Y97.850 Z2.599
;TYPE:FILL
G1 F3000 X99.124 Y127.149 E1340.36554
G0 F9000 X104.521 Y127.149
G1 F3000 X99.104 Y121.731 E1340.67200
G0 F9000 X99.105 Y115.855
G1 F3000 X117.110 Y97.850 E1341.69051
G0 F9000 X120.477 Y97.850
G1 F3000 X130.894 Y108.267 E1342.27979
G0 F9000 X130.894 Y106.693
G1 F3000 X110.438 Y127.149 E1343.43695
G0 F9000 X115.835 Y127.149
G1 F3000 X99.104 Y110.418 E1344.38340
G0 F9000 X99.105 Y104.541
G1 F3000 X105.796 Y97.850 E1344.76190
G0 F9000 X109.163 Y97.850
G1 F3000 X130.894 Y119.580 E1345.99117
G0 F9000 X130.894 Y118.006
G1 F3000 X121.751 Y127.149 E1346.50837
G0 F9000 X127.149 Y127.149
G1 F3000 X99.104 Y99.104 E1348.09484
G0 F9000 X98.965 Y97.710
;TYPE:WALL-INNER
G1 F3000 X131.035 Y97.710 E1349.37764
G1 X131.035 Y127.290 E1350.56084
G1 X98.965 Y127.290 E1351.84364
G1 X98.965 Y97.710 E1353.02684
G0 F9000 X98.565 Y97.310
;TYPE:WALL-OUTER
G1 F3000 X131.435 Y97.310 E1354.34164
G1 X131.435 Y127.690 E1355.55684
G1 X98.565 Y127.690 E1356.87164
G1 X98.565 Y97.310 E1358.08684
G0 F9000 X99.365 Y98.110
;LAYER:24
G0 X99.104 Y99.104 Z2.699
;TYPE:FILL
G1 F3000 X127.149 Y127.149 E1359.67330
G0 F9000 X121.751 Y127.149
G1 F3000 X130.894 Y118.006 E1360.19051
G0 F9000 X130.894 Y119.580
G1 F3000 X109.163 Y97.850 E1361.41977
G0 F9000 X105.796 Y97.850
G1 F3000 X99.105 Y104.541 E1361.79827
G0 F9000 X99.104 Y110.418
G1 F3000 X115.835 Y127.149 E1362.74472
G0 F9000 X110.438 Y127.149
G1 F3000 X130.894 Y106.693 E1363.90189
G0 F9000 X130.894 Y108.267
G1 F3000 X120.477 Y97.850 E1364.49116
G0 F9000 X117.110 Y97.850
G1 F3000 X99.105 Y115.855 E1365.50968
G0 F9000 X99.104 Y121.731
G1 F3000 X104.521 Y127.149 E1365.81614
G0 F9000 X99.124 Y127.149
G1 F3000 X128.424 Y97.850 E1367.47357
G0 F9000 X131.035 Y97.710
;TYPE:WALL-INNER
G1 F3000 X131.035 Y127.290 E1368.65677
G1 X98.965 Y127.290 E1369.93957
G1 X98.965 Y97.710 E1371.12277
G1 X131.035 Y97.710 E1372.40557
G0 F9000 X131.435 Y97.310
;TYPE:WALL-OUTER
G1 F3000 X131.435 Y127.690 E1373.62077
G1 X98.565 Y127.690 E1374.93557
G1 X98.565 Y97.310 E1376.15077
G1 X131.435 Y97.310 E1377.46557
G0 F9000 X130.635 Y98.110
;LAYER:25
G0 X128.424 Y97.850 Z2.799
;TYPE:FILL
G1 F3000 X99.124 Y127.149 E1379.12300
G0 F9000 X104.521 Y127.149
G1 F3000 X99.104 Y121.731 E1379.42946
G0 F9000 X99.105 Y115.855
G1 F3000 X117.110 Y97.850 E1380.44797
G0 F9000 X120.477 Y97.850
G1 F3000 X130.894 Y108.267 E1381.03725
G0 F9000 X130.894 Y106.693
G1 F3000 X110.438 Y127.149 E1382.19441
G0 F9000 X115.835 Y127.149
G1 F3000 X99.104 Y110.418 E1383.14086
G0 F9000 X99.105 Y104.541
G1 F3000 X105.796 Y97.850 E1383.51936
G0 F9000 X109.163 Y97.850
G1 F3000 X130.894 Y119.580 E1384.74862
G0 F9000 X130.894 Y118.006
G1 F3000 X121.751 Y127.149 E1385.26583
G0 F9000 X127.149 Y127.149
G1 F3000 X99.104 Y99.104 E1386.85230
G0 F9000 X98.965 Y97.710
;TYPE:WALL-INNER
G1 F3000 X131.035 Y97.710 E1388.13510
G1 X131.035 Y127.290 E1389.31830
G1 X98.965 Y127.290 E1390.60110
G1 X98.965 Y97.710 E1391.78430
G0 F9000 X98.565 Y97.310
;TYPE:WALL-OUTER
G1 F3000 X131.435 Y97.310 E1393.09910
G1 X131.435 Y127.690 E1394.31430
G1 X98.565 Y127.690 E1395.62910
G1 X98.565 Y97.310 E1396.84430
G0 F9000 X99.365 Y98.110
;LAYER:26
G0 X99.104 Y99.104 Z2.899
;TYPE:FILL
G1 F3000 X127.149 Y127.149 E1398.43076
G0 F9000 X121.751 Y127.149
G1 F3000 X130.894 Y118.006 E1398.94797
G0 F9000 X130.894 Y119.580
G1 F3000 X109.163 Y97.850 E1400.17723
G0 F9000 X105.796 Y97.850
G1 F3000 X99.105 Y104.541 E1400.55573
G0 F9000 X99.104 Y110.418
G1 F3000 X115.835 Y127.149 E1401.50218
G0 F9000 X110.438 Y127.149
G1 F3000 X130.894 Y106.693 E1402.65934
G0 F9000 X130.894 Y108.267
G1 F3000 X120.477 Y97.850 E1403.24862
G0 F9000 X117.110 Y97.850
G1 F3000 X99.105 Y115.855 E1404.26713
G0 F9000 X99.104 Y121.731
G1 F3000 X104.521 Y127.149 E1404.57359
G0 F9000 X99.124 Y127.149
G1 F3000 X128.424 Y97.850 E1406.23102
G0 F9000 X131.035 Y97.710
;TYPE:WALL-INNER
G1 F3000 X131.035 Y127.290 E1407.41422
G1 X98.965 Y127.290 E1408.69702
G1 X98.965 Y97.710 E1409.88022
G1 X131.035 Y97.710 E1411.16302
G0 F9000 X131.435 Y97.310
;TYPE:WALL-OUTER
G1 F3000 X131.435 Y127.690 E1412.37822
G1 X98.565 Y127.690 E1413.69302
G1 X98.565 Y97.310 E1414.90822
G1 X131.435 Y97.310 E1416.22302
G0 F9000 X130.635 Y98.110
;LAYER:27
G0 X128.424 Y97.850 Z2.999
;TYPE:FILL
G1 F3000 X99.124 Y127.149 E1417.88046
G0 F9000 X104.521 Y127.149
G1 F3000 X99.104 Y121.731 E1418.18692
G0 F9000 X99.105 Y115.855
G1 F3000 X117.110 Y97.850 E1419.20543
G0 F9000 X120.477 Y97.850
G1 F3000 X130.894 Y108.267 E1419.79471
G0 F9000 X130.894 Y106.693
G1 F3000 X110.438 Y127.149 E1420.95187
G0 F9000 X115.835 Y127.149
G1 F3000 X99.104 Y110.418 E1421.89832
G0 F9000 X99.105 Y104.541
G1 F3000 X105.796 Y97.850 E1422.27682
G0 F9000 X109.163 Y97.850
G1 F3000 X130.894 Y119.580 E1423.50608
G0 F9000 X130.894 Y118.006
G1 F3000 X121.751 Y127.149 E1424.02329
G0 F9000 X127.149 Y127.149
G1 F3000 X99.104 Y99.104 E1425.60975
G0 F9000 X98.965 Y97.710
;TYPE:WALL-INNER
G1 F3000 X131.035 Y97.710 E1426.89255
G1 X131.035 Y127.290 E1428.07575
G1 X98.965 Y127.290 E1429.35855
G1 X98.965 Y97.710 E1430.54175
G0 F9000 X98.565 Y97.310
;TYPE:WALL-OUTER
G1 F3000 X131.435 Y97.310 E1431.85655
G1 X131.435 Y127.690 E1433.07175
G1 X98.565 Y127.690 E1434.38655
G1 X98.565 Y97.310 E1435.60175
G0 F9000 X99.365 Y98.110
;LAYER:28
G0 X99.104 Y99.104 Z3.099
;TYPE:FILL
G1 F3000 X127.149 Y127.149 E1437.18822
G0 F9000 X121.751 Y127.149
G1 F3000 X130.894 Y118.006 E1437.70543
G0 F9000 X130.894 Y119.580
G1 F3000 X109.163 Y97.850 E1438.93469
G0 F9000 X105.796 Y97.850
G1 F3000 X99.105 Y104.541 E1439.31319
G0 F9000 X99.104 Y110.418
G1 F3000 X115.835 Y127.149 E1440.25964
G0 F9000 X110.438 Y127.149
G1 F3000 X130.894 Y106.693 E1441.41680
G0 F9000 X130.894 Y108.267
G1 F3000 X120.477 Y97.850 E1442.00608
G0 F9000 X117.110 Y97.850
G1 F3000 X99.105 Y115.855 E1443.02459
G0 F9000 X99.104 Y121.731
G1 F3000 X104.521 Y127.149 E1443.33105
G0 F9000 X99.124 Y127.149
G1 F3000 X128.424 Y97.850 E1444.98848
G0 F9000 X131.035 Y97.710
;TYPE:WALL-INNER
G1 F3000 X131.035 Y127.290 E1446.17168
G1 X98.965 Y127.290 E1447.45448
G1 X98.965 Y97.710 E1448.63768
G1 X131.035 Y97.710 E1449.92048
G0 F9000 X131.435 Y97.310
;TYPE:WALL-OUTER
G1 F3000 X131.435 Y127.690 E1451.13568
G1 X98.565 Y127.690 E1452.45048
G1 X98.565 Y97.310 E1453.66568
G1 X131.435 Y97.310 E1454.98048
G0 F9000 X130.635 Y98.110
;LAYER:29
G0 X128.424 Y97.850 Z3.199
;TYPE:FILL
G1 F3000 X99.124 Y127.149 E1456.63791
G0 F9000 X104.521 Y127.149
G1 F3000 X99.104 Y121.731 E1456.94437
G0 F9000 X99.105 Y115.855
G1 F3000 X117.110 Y97.850 E1457.96289
G0 F9000 X120.477 Y97.850
G1 F3000 X130.894 Y108.267 E1458.55216
G0 F9000 X130.894 Y106.693
G1 F3000 X110.438 Y127.149 E1459.70933
G0 F9000 X115.835 Y127.149
G1 F3000 X99.104 Y110.418 E1460.65578
G0 F9000 X99.105 Y104.541
G1 F3000 X105.796 Y97.850 E1461.03428
G0 F9000 X109.163 Y97.850
G1 F3000 X130.894 Y119.580 E1462.26354
G0 F9000 X130.894 Y118.006
G1 F3000 X121.751 Y127.149 E1462.78075
G0 F9000 X127.149 Y127.149
G1 F3000 X99.104 Y99.104 E1464.36721
G0 F9000 X98.965 Y97.710
;TYPE:WALL-INNER
G1 F3000 X131.035 Y97.710 E1465.65001
G1 X131.035 Y127.290 E1466.83321
G1 X98.965 Y127.290 E1468.11601
G1 X98.965 Y97.710 E1469.29921
G0 F9000 X98.565 Y97.310
;TYPE:WALL-OUTER
G1 F3000 X131.435 Y97.310 E1470.61401
G1 X131.435 Y127.690 E1471.82921
G1 X98.565 Y127.690 E1473.14401
G1 X98.565 Y97.310 E1474.35921
G0 F9000 X99.365 Y98.110
;LAYER:30
G0 X99.104 Y99.104 Z3.299
;TYPE:FILL
G1 F3000 X127.149 Y127.149 E1475.94568
G0 F9000 X121.751 Y127.149
G1 F3000 X130.894 Y118.006 E1476.46288
G0 F9000 X130.894 Y119.580
G1 F3000 X109.163 Y97.850 E1477.69215
G0 F9000 X105.796 Y97.850
G1 F3000 X99.105 Y104.541 E1478.07065
G0 F9000 X99.104 Y110.418
G1 F3000 X115.835 Y127.149 E1479.01710
G0 F9000 X110.438 Y127.149
G1 F3000 X130.894 Y106.693 E1480.17426
G0 F9000 X130.894 Y108.267
G1 F3000 X120.477 Y97.850 E1480.76354
G0 F9000 X117.110 Y97.850
G1 F3000 X99.105 Y115.855 E1481.78205
G0 F9000 X99.104 Y121.731
G1 F3000 X104.521 Y127.149 E1482.08851
G0 F9000 X99.124 Y127.149
G1 F3000 X128.424 Y97.850 E1483.74594
G0 F9000 X131.035 Y97.710
;TYPE:WALL-INNER
G1 F3000 X131.035 Y127.290 E1484.92914
G1 X98.965 Y127.290 E1486.21194
G1 X98.965 Y97.710 E1487.39514
G1 X131.035 Y97.710 E1488.67794
G0 F9000 X131.435 Y97.310
;TYPE:WALL-OUTER
G1 F3000 X131.435 Y127.690 E1489.89314
G1 X98.565 Y127.690 E1491.20794
G1 X98.565 Y97.310 E1492.42314
G1 X131.435 Y97.310 E1493.73794
G0 F9000 X130.635 Y98.110
;LAYER:31
G0 X128.424 Y97.850 Z3.399
;TYPE:FILL
G1 F3000 X99.124 Y127.149 E1495.39537
G0 F9000 X104.521 Y127.149
G1 F3000 X99.104 Y121.731 E1495.70183
G0 F9000 X99.105 Y115.855
G1 F3000 X117.110 Y97.850 E1496.72035
G0 F9000 X120.477 Y97.850
G1 F3000 X130.894 Y108.267 E1497.30962
G0 F9000 X130.894 Y106.693
G1 F3000 X110.438 Y127.149 E1498.46679
G0 F9000 X115.835 Y127.149
G1 F3000 X99.104 Y110.418 E1499.41324
G0 F9000 X99.105 Y104.541
G1 F3000 X105.796 Y97.850 E1499.79174
G0 F9000 X109.163 Y97.850
G1 F3000 X130.894 Y119.580 E1501.02100
G0 F9000 X130.894 Y118.006
G1 F3000 X121.751 Y127.149 E1501.53821
G0 F9000 X127.149 Y127.149
G1 F3000 X99.104 Y99.104 E1503.12467
G0 F9000 X98.965 Y97.710
;TYPE:WALL-INNER
G1 F3000 X131.035 Y97.710 E1504.40747
G1 X131.035 Y127.290 E1505.59067
G1 X98.965 Y127.290 E1506.87347
G1 X98.965 Y97.710 E1508.05667
G0 F9000 X98.565 Y97.310
;TYPE:WALL-OUTER
G1 F3000 X131.435 Y97.310 E1509.37147
G1 X131.435 Y127.690 E1510.58667
G1 X98.565 Y127.690 E1511.90147
G1 X98.565 Y97.310 E1513.11667
G0 F9000 X99.365 Y98.110
;LAYER:32
G0 X99.104 Y99.104 Z3.499
;TYPE:FILL
G1 F3000 X127.149 Y127.149 E1514.70314
G0 F9000 X121.751 Y127.149
G1 F3000 X130.894 Y118.006 E1515.22034
G0 F9000 X130.894 Y119.580
G1 F3000 X109.163 Y97.850 E1516.44961
G0 F9000 X105.796 Y97.850
G1 F3000 X99.105 Y104.541 E1516.82811
G0 F9000 X99.104 Y110.418
G1 F3000 X115.835 Y127.149 E1517.77455
G0 F9000 X110.438 Y127.149
G1 F3000 X130.894 Y106.693 E1518.93172
G0 F9000 X130.894 Y108.267
G1 F3000 X120.477 Y97.850 E1519.52099
G0 F9000 X117.110 Y97.850
G1 F3000 X99.105 Y115.855 E1520.53951
G0 F9000 X99.104 Y121.731
G1 F3000 X104.521 Y127.149 E1520.84597
G0 F9000 X99.124 Y127.149
G1 F3000 X128.424 Y97.850 E1522.50340
G0 F9000 X131.035 Y97.710
;TYPE:WALL-INNER
G1 F3000 X131.035 Y127.290 E1523.68660
G1 X98.965 Y127.290 E1524.96940
G1 X98.965 Y97.710 E1526.15260
G1 X131.035 Y97.710 E1527.43540
G0 F9000 X131.435 Y97.310
;TYPE:WALL-OUTER
G1 F3000 X131.435 Y127.690 E1528.65060
G1 X98.565 Y127.690 E1529.96540
G1 X98.565 Y97.310 E1531.18060
G1 X131.435 Y97.310 E1532.49540
G0 F9000 X130.635 Y98.110
;LAYER:33
G0 X128.424 Y97.850 Z3.599
;TYPE:FILL
G1 F3000 X99.124 Y127.149 E1534.15283
G0 F9000 X104.521 Y127.149
G1 F3000 X99.104 Y121.731 E1534.45929
G0 F9000 X99.105 Y115.855
G1 F3000 X117.110 Y97.850 E1535.47781
G0 F9000 X120.477 Y97.850
G1 F3000 X130.894 Y108.267 E1536.06708
G0 F9000 X130.894 Y106.693
G1 F3000 X110.438 Y127.149 E1537.22425
G0 F9000 X115.835 Y127.149
G1 F3000 X99.104 Y110.418 E1538.17070
G0 F9000 X99.105 Y104.541
G1 F3000 X105.796 Y97.850 E1538.54920
G0 F9000 X109.163 Y97.850
G1 F3000 X130.894 Y119.580 E1539.77846
G0 F9000 X130.894 Y118.006
G1 F3000 X121.751 Y127.149 E1540.29567
G0 F9000 X127.149 Y127.149
G1 F3000 X99.104 Y99.104 E1541.88213
G0 F9000 X98.965 Y97.710
;TYPE:WALL-INNER
G1 F3000 X131.035 Y97.710 E1543.16493
G1 X131.035 Y127.290 E1544.34813
G1 X98.965 Y127.290 E1545.63093
G1 X98.965 Y97.710 E1546.81413
G0 F9000 X98.565 Y97.310
;TYPE:WALL-OUTER
G1 F3000 X131.435 Y97.310 E1548.12893
G1 X131.435 Y127.690 E1549.34413
G1 X98.565 Y127.690 E1550.65893
G1 X98.565 Y97.310 E1551.87413
G0 F9000 X99.365 Y98.110
;LAYER:34
G0 X99.104 Y99.104 Z3.699
;TYPE:FILL
G1 F3000 X127.149 Y127.149 E1553.46060
G0 F9000 X121.751 Y127.149
G1 F3000 X130.894 Y118.006 E1553.97780
G0 F9000 X130.894 Y119.580
G1 F3000 X109.163 Y97.850 E1555.20706
G0 F9000 X105.796 Y97.850
G1 F3000 X99.105 Y104.541 E1555.58556
G0 F9000 X99.104 Y110.418
G1 F3000 X115.835 Y127.149 E1556.53201
G0 F9000 X110.438 Y127.149
G1 F3000 X130.894 Y106.693 E1557.68918
G0 F9000 X130.894 Y108.267
G1 F3000 X120.477 Y97.850 E1558.27845
G0 F9000 X117.110 Y97.850
G1 F3000 X99.105 Y115.855 E1559.29697
G0 F9000 X99.104 Y121.731
G1 F3000 X104.521 Y127.149 E1559.60343
G0 F9000 X99.124 Y127.149
G1 F3000 X128.424 Y97.850 E1561.26086
G0 F9000 X131.035 Y97.710
;TYPE:WALL-INNER
G1 F3000 X131.035 Y127.290 E1562.44406
G1 X98.965 Y127.290 E1563.72686
G1 X98.965 Y97.710 E1564.91006
G1 X131.035 Y97.710 E1566.19286
G0 F9000 X131.435 Y97.310
;TYPE:WALL-OUTER
G1 F3000 X131.435 Y127.690 E1567.40806
G1 X98.565 Y127.690 E1568.72286
G1 X98.565 Y97.310 E1569.93806
G1 X131.435 Y97.310 E1571.25286
G0 F9000 X130.635 Y98.110
;LAYER:35
G0 X128.424 Y97.850 Z3.799
;TYPE:FILL
G1 F3000 X99.124 Y127.149 E1572.91029
G0 F9000 X104.521 Y127.149
G1 F3000 X99.104 Y121.731 E1573.21675
G0 F9000 X99.105 Y115.855
G1 F3000 X117.110 Y97.850 E1574.23527
G0 F9000 X120.477 Y97.850
G1 F3000 X130.894 Y108.267 E1574.82454
G0 F9000 X130.894 Y106.693
G1 F3000 X110.438 Y127.149 E1575.98171
G0 F9000 X115.835 Y127.149
G1 F3000 X99.104 Y110.418 E1576.92816
G0 F9000 X99.105 Y104.541
G1 F3000 X105.796 Y97.850 E1577.30666
G0 F9000 X109.163 Y97.850
G1 F3000 X130.894 Y119.580 E1578.53592
G0 F9000 X130.894 Y118.006
G1 F3000 X121.751 Y127.149 E1579.05312
G0 F9000 X127.149 Y127.149
G1 F3000 X99.104 Y99.104 E1580.63959
G0 F9000 X98.965 Y97.710
;TYPE:WALL-INNER
G1 F3000 X131.035 Y97.710 E1581.92239
G1 X131.035 Y127.290 E1583.10559
G1 X98.965 Y127.290 E1584.38839
G1 X98.965 Y97.710 E1585.57159
G0 F9000 X98.565 Y97.310
;TYPE:WALL-OUTER
G1 F3000 X131.435 Y97.310 E1586.88639
G1 X131.435 Y127.690 E1588.10159
G1 X98.565 Y127.690 E1589.41639
G1 X98.565 Y97.310 E1590.63159
G0 F9000 X99.365 Y98.110
;LAYER:36
G0 X99.104 Y99.104 Z3.899
;TYPE:FILL
G1 F3000 X127.149 Y127.149 E1592.21805
G0 F9000 X121.751 Y127.149
G1 F3000 X130.894 Y118.006 E1592.73526
G0 F9000 X130.894 Y119.580
G1 F3000 X109.163 Y97.850 E1593.96452
G0 F9000 X105.796 Y97.850
G1 F3000 X99.105 Y104.541 E1594.34302
G0 F9000 X99.104 Y110.418
G1 F3000 X115.835 Y127.149 E1595.28947
G0 F9000 X110.438 Y127.149
G1 F3000 X130.894 Y106.693 E1596.44664
G0 F9000 X130.894 Y108.267
G1 F3000 X120.477 Y97.850 E1597.03591
G0 F9000 X117.110 Y97.850
G1 F3000 X99.105 Y115.855 E1598.05443
G0 F9000 X99.104 Y121.731
G1 F3000 X104.521 Y127.149 E1598.36089
G0 F9000 X99.124 Y127.149
G1 F3000 X128.424 Y97.850 E1600.01832
G0 F9000 X131.035 Y97.710
;TYPE:WALL-INNER
G1 F3000 X131.035 Y127.290 E1601.20152
G1 X98.965 Y127.290 E1602.48432
G1 X98.965 Y97.710 E1603.66752
G1 X131.035 Y97.710 E1604.95032
G0 F9000 X131.435 Y97.310
;TYPE:WALL-OUTER
G1 F3000 X131.435 Y127.690 E1606.16552
G1 X98.565 Y127.690 E1607.48032
G1 X98.565 Y97.310 E1608.69552
G1 X131.435 Y97.310 E1610.01032
G0 F9000 X130.635 Y98.110
;LAYER:37
G0 X128.424 Y97.850 Z3.999
;TYPE:FILL
G1 F3000 X99.124 Y127.149 E1611.66775
G0 F9000 X104.521 Y127.149
G1 F3000 X99.104 Y121.731 E1611.97421
G0 F9000 X99.105 Y115.855
G1 F3000 X117.110 Y97.850 E1612.99273
G0 F9000 X120.477 Y97.850
G1 F3000 X130.894 Y108.267 E1613.58200
G0 F9000 X130.894 Y106.693
G1 F3000 X110.438 Y127.149 E1614.73917
G0 F9000 X115.835 Y127.149
G1 F3000 X99.104 Y110.418 E1615.68561
G0 F9000 X99.105 Y104.541
G1 F3000 X105.796 Y97.850 E1616.06411
G0 F9000 X109.163 Y97.850
G1 F3000 X130.894 Y119.580 E1617.29338
G0 F9000 X130.894 Y118.006
G1 F3000 X121.751 Y127.149 E1617.81058
G0 F9000 X127.149 Y127.149
G1 F3000 X99.104 Y99.104 E1619.39705
G0 F9000 X98.965 Y97.710
;TYPE:WALL-INNER
G1 F3000 X131.035 Y97.710 E1620.67985
G1 X131.035 Y127.290 E1621.86305
G1 X98.965 Y127.290 E1623.14585
G1 X98.965 Y97.710 E1624.32905
G0 F9000 X98.565 Y97.310
;TYPE:WALL-OUTER
G1 F3000 X131.435 Y97.310 E1625.64385
G1 X131.435 Y127.690 E1626.85905
G1 X98.565 Y127.690 E1628.17385
G1 X98.565 Y97.310 E1629.38905
G0 F9000 X99.365 Y98.110
;LAYER:38
G0 X99.104 Y99.104 Z4.099
;TYPE:FILL
G1 F3000 X127.149 Y127.149 E1630.97551
G0 F9000 X121.751 Y127.149
G1 F3000 X130.894 Y118.006 E1631.49272
G0 F9000 X130.894 Y119.580
G1 F3000 X109.163 Y97.850 E1632.72198
G0 F9000 X105.796 Y97.850
G1 F3000 X99.105 Y104.541 E1633.10048
G0 F9000 X99.104 Y110.418
G1 F3000 X115.835 Y127.149 E1634.04693
G0 F9000 X110.438 Y127.149
G1 F3000 X130.894 Y106.693 E1635.20410
G0 F9000 X130.894 Y108.267
G1 F3000 X120.477 Y97.850 E1635.79337
G0 F9000 X117.110 Y97.850
G1 F3000 X99.105 Y115.855 E1636.81189
G0 F9000 X99.104 Y121.731
G1 F3000 X104.521 Y127.149 E1637.11835
G0 F9000 X99.124 Y127.149
G1 F3000 X128.424 Y97.850 E1638.77578
G0 F9000 X131.035 Y97.710
;TYPE:WALL-INNER
G1 F3000 X131.035 Y127.290 E1639.95898
G1 X98.965 Y127.290 E1641.24178
G1 X98.965 Y97.710 E1642.42498
G1 X131.035 Y97.710 E1643.70778
G0 F9000 X131.435 Y97.310
;TYPE:WALL-OUTER
G1 F3000 X131.435 Y127.690 E1644.92298
G1 X98.565 Y127.690 E1646.23778
G1 X98.565 Y97.310 E1647.45298
G1 X131.435 Y97.310 E1648.76778
G0 F9000 X130.635 Y98.110
;LAYER:39
G0 X128.424 Y97.850 Z4.199
;TYPE:FILL
G1 F3000 X99.124 Y127.149 E1650.42521
G0 F9000 X104.521 Y127.149
G1 F3000 X99.104 Y121.731 E1650.73167
G0 F9000 X99.105 Y115.855
G1 F3000 X117.110 Y97.850 E1651.75018
G0 F9000 X120.477 Y97.850
G1 F3000 X130.894 Y108.267 E1652.33946
G0 F9000 X130.894 Y106.693
G1 F3000 X110.438 Y127.149 E1653.49662
G0 F9000 X115.835 Y127.149
G1 F3000 X99.104 Y110.418 E1654.44307
G0 F9000 X99.105 Y104.541
G1 F3000 X105.796 Y97.850 E1654.82157
G0 F9000 X109.163 Y97.850
G1 F3000 X130.894 Y119.580 E1656.05084
G0 F9000 X130.894 Y118.006
G1 F3000 X121.751 Y127.149 E1656.56804
G0 F9000 X127.149 Y127.149
G1 F3000 X99.104 Y99.104 E1658.15451
G0 F9000 X98.965 Y97.710
;TYPE:WALL-INNER
G1 F3000 X131.035 Y97.710 E1659.43731
G1 X131.035 Y127.290 E1660.62051
G1 X98.965 Y127.290 E1661.90331
G1 X98.965 Y97.710 E1663.08651
G0 F9000 X98.565 Y97.310
;TYPE:WALL-OUTER
G1 F3000 X131.435 Y97.310 E1664.40131
G1 X131.435 Y127.690 E1665.61651
G1 X98.565 Y127.690 E1666.93131
G1 X98.565 Y97.310 E1668.14651
G0 F9000 X99.365 Y98.110
;LAYER:40
G0 X99.104 Y99.104 Z4.299
;TYPE:FILL
G1 F3000 X127.149 Y127.149 E1669.73297
G0 F9000 X121.751 Y127.149
G1 F3000 X130.894 Y118.006 E1670.25018
G0 F9000 X130.894 Y119.580
G1 F3000 X109.163 Y97.850 E1671.47944
G0 F9000 X105.796 Y97.850
G1 F3000 X99.105 Y104.541 E1671.85794
G0 F9000 X99.104 Y110.418
G1 F3000 X115.835 Y127.149 E1672.80439
G0 F9000 X110.438 Y127.149
G1 F3000 X130.894 Y106.693 E1673.96156
G0 F9000 X130.894 Y108.267
G1 F3000 X120.477 Y97.850 E1674.55083
G0 F9000 X117.110 Y97.850
G1 F3000 X99.105 Y115.855 E1675.56935
G0 F9000 X99.104 Y121.731
G1 F3000 X104.521 Y127.149 E1675.87581
G0 F9000 X99.124 Y127.149
G1 F3000 X128.424 Y97.850 E1677.53324
G0 F9000 X131.035 Y97.710
;TYPE:WALL-INNER
G1 F3000 X131.035 Y127.290 E1678.71644
G1 X98.965 Y127.290 E1679.99924
G1 X98.965 Y97.710 E1681.18244
G1 X131.035 Y97.710 E1682.46524
G0 F9000 X131.435 Y97.310
;TYPE:WALL-OUTER
G1 F3000 X131.435 Y127.690 E1683.68044
G1 X98.565 Y127.690 E1684.99524
G1 X98.565 Y97.310 E1686.21044
G1 X131.435 Y97.310 E1687.52524
G0 F9000 X130.635 Y98.110
;LAYER:41
G0 X128.424 Y97.850 Z4.399
;TYPE:FILL
G1 F3000 X99.124 Y127.149 E1689.18267
G0 F9000 X104.521 Y127.149
G1 F3000 X99.104 Y121.731 E1689.48913
G0 F9000 X99.105 Y115.855
G1 F3000 X117.110 Y97.850 E1690.50764
G0 F9000 X120.477 Y97.850
G1 F3000 X130.894 Y108.267 E1691.09692
G0 F9000 X130.894 Y106.693
G1 F3000 X110.438 Y127.149 E1692.25408
G0 F9000 X115.835 Y127.149
G1 F3000 X99.104 Y110.418 E1693.20053
G0 F9000 X99.105 Y104.541
G1 F3000 X105.796 Y97.850 E1693.57903
G0 F9000 X109.163 Y97.850
G1 F3000 X130.894 Y119.580 E1694.80829
G0 F9000 X130.894 Y118.006
